; generated by PrusaSlicer 2.5.0+MacOS-arm64 on 2023-01-18 at 09:05:46 UTC

; 

; external perimeters extrusion width = 0.45mm
; perimeters extrusion width = 0.45mm
; infill extrusion width = 0.45mm
; solid infill extrusion width = 0.45mm
; top infill extrusion width = 0.40mm
; first layer extrusion width = 0.42mm

; external perimeters extrusion width = 0.45mm
; perimeters extrusion width = 0.45mm
; infill extrusion width = 0.45mm
; solid infill extrusion width = 0.45mm
; top infill extrusion width = 0.40mm
; first layer extrusion width = 0.42mm

M107
;TYPE:Custom
G90 ; use absolute coordinates
M83 ; extruder relative mode
M140 S60 ; set final bed temp
M104 S150 ; set temporary nozzle temp to prevent oozing during homing
G4 S10 ; allow partial nozzle warmup
G28 ; home all axis
G1 Z50 F240
G1 X2 Y10 F3000
M104 S210 ; set final nozzle temp
M190 S60 ; wait for bed temp to stabilize
M109 S210 ; wait for nozzle temp to stabilize
G1 Z0.28 F240
G92 E0
G1 Y140 E10 F1500 ; prime the nozzle
G1 X2.3 F5000
G92 E0
G1 Y10 E10 F1200 ; prime the nozzle
G92 E0
G21 ; set units to millimeters
G90 ; use absolute coordinates
M83 ; use relative distances for extrusion
; Filament gcode
M107
;LAYER_CHANGE
;Z:0.2
;HEIGHT:0.2
;BEFORE_LAYER_CHANGE
G92 E0
;0.2


G1 E-6 F3600
G1 Z.2 F9000
;AFTER_LAYER_CHANGE
;0.2
G1 X104.207 Y91.196
G1 E6 F2400
M204 S500
;TYPE:Skirt/Brim
;WIDTH:0.42
G1 F1200
G1 X105.664 Y89.875 E.06169
G1 X107.09 Y88.964 E.05305
G1 X108.902 Y88.197 E.0617
G1 X110.695 Y87.788 E.05767
G1 X112.66 Y87.691 E.06168
G1 X132.495 Y88.153 E.62207
G1 X134.441 Y88.441 E.06169
G1 X136.05 Y88.966 E.05306
G1 X137.4 Y89.639 E.04729
G1 X138.426 Y90.323 E.03867
G1 X139.46 Y91.208 E.04268
G1 X140.294 Y92.116 E.03866
G1 X140.93 Y92.974 E.03348
G1 X146.387 Y101.577 E.31943
G1 X146.982 Y102.661 E.03876
G1 X147.461 Y103.765 E.03774
G1 X148.593 Y106.879 E.10389
G1 X148.794 Y108.127 E.03961
G1 X148.329 Y124.838 E.52417
G1 X148.197 Y126.391 E.04888
G1 X147.857 Y128.02 E.05217
G1 X147.475 Y129.192 E.03865
G1 X146.84 Y130.615 E.04886
G1 X146.088 Y131.885 E.04631
G1 X145.146 Y133.127 E.04886
G1 X144.302 Y134.025 E.03864
G1 X143.122 Y135.043 E.04888
G1 X141.901 Y135.874 E.0463
G1 X140.424 Y136.641 E.05219
G1 X138.862 Y137.217 E.05219
G1 X137.241 Y137.593 E.05218
G1 X135.585 Y137.764 E.05219
G1 X115.107 Y137.317 E.64224
G1 X113.53 Y137.189 E.04959
G1 X112.319 Y136.96 E.03864
G1 X110.728 Y136.475 E.05218
G1 X109.302 Y135.843 E.04887
G1 X108.03 Y135.095 E.0463
G1 X106.785 Y134.156 E.04887
G1 X105.885 Y133.315 E.03864
G1 X104.863 Y132.138 E.04886
G1 X104.029 Y130.919 E.04631
G1 X103.258 Y129.444 E.05218
G1 X102.709 Y127.985 E.04888
G1 X102.398 Y126.793 E.03864
G1 X102.156 Y125.146 E.05218
G1 X101.337 Y98.72 E.82898
G1 X101.374 Y97.653 E.03346
G1 X101.547 Y96.432 E.03868
G1 X102.103 Y94.546 E.06167
G1 X102.546 Y93.574 E.03348
G1 X103.081 Y92.65 E.03347
G1 X104.17 Y91.244 E.05578
G1 E-4.2 F3600
;WIPE_START
G1 F7200
G1 X105.664 Y89.875 E-.96265
G1 X106.99 Y89.028 E-.74735
;WIPE_END
G1 E-.09 F3600
G1 X125.223 Y96.966 F9000
G1 E6 F2400
G1 F1200
G1 X125.736 Y95.734 E.04183
G1 X126.497 Y94.594 E.04296
G1 X127.491 Y93.605 E.04399
G1 X128.631 Y92.852 E.04284
G1 X129.863 Y92.346 E.04175
G1 X131.205 Y92.079 E.04292
G1 X132.581 Y92.078 E.04313
G1 X133.337 Y92.2 E.02401
G1 X134.081 Y92.398 E.02415
G1 X135.378 Y92.988 E.04465
G1 X136.512 Y93.808 E.04388
G1 X137.178 Y94.486 E.02981
G1 X137.678 Y95.147 E.02599
G1 X138.309 Y96.32 E.04176
G1 X139.676 Y100.368 E.13395
G1 X140.168 Y100.647 E.01773
G1 X140.796 Y101.095 E.02418
G1 X141.4 Y101.605 E.0248
G1 X142.022 Y102.235 E.02775
G1 X142.659 Y103.025 E.03183
G1 X143.327 Y104.1 E.03966
G1 X143.921 Y105.391 E.04455
G1 X144.233 Y106.826 E.04606
G1 X144.169 Y108.041 E.03814
G1 X143.803 Y109.254 E.03972
G1 X142.862 Y110.761 E.05571
G1 X141.889 Y111.671 E.04177
G1 X140.797 Y112.286 E.03928
G1 X140.813 Y112.537 E.00789
G1 X140.496 Y114.74 E.06979
G1 X140.416 Y115.536 E.02509
G1 X140.383 Y116.297 E.0239
G1 X140.398 Y116.826 E.01658
G1 X140.838 Y117.127 E.01671
G1 X141.701 Y117.894 E.03621
G1 X142.392 Y118.672 E.03262
G1 X142.859 Y119.315 E.02492
G1 X143.327 Y120.1 E.02865
G1 X143.721 Y120.94 E.02911
G1 X144.041 Y121.848 E.03018
G1 X144.291 Y122.927 E.03471
G1 X144.387 Y123.671 E.02354
G1 X144.422 Y124.421 E.02353
G1 X144.374 Y125.459 E.03259
G1 X144.222 Y126.425 E.03066
G1 X144.005 Y127.264 E.02716
G1 X143.647 Y128.23 E.03231
G1 X143.186 Y129.148 E.03221
G1 X142.728 Y129.871 E.02684
G1 X142.081 Y130.694 E.03282
G1 X141.372 Y131.414 E.03167
G1 X140.81 Y131.889 E.02309
G1 X140.11 Y132.383 E.02684
G1 X139.36 Y132.817 E.02717
G1 X138.385 Y133.252 E.03348
G1 X137.732 Y133.474 E.02164
G1 X137.066 Y133.646 E.02155
G1 X135.84 Y133.833 E.03889
G1 X135.088 Y133.863 E.02358
G1 X134.063 Y133.812 E.0322
G1 X133.204 Y133.678 E.02724
G1 X132.369 Y133.471 E.02697
G1 X131.517 Y133.169 E.02835
G1 X130.696 Y132.788 E.02837
G1 X130.059 Y132.418 E.02308
G1 X129.178 Y131.791 E.0339
G1 X128.536 Y131.222 E.0269
G1 X127.953 Y130.604 E.02664
G1 X127.498 Y130.027 E.02305
G1 X126.905 Y129.115 E.03412
G1 X126.488 Y128.283 E.02918
G1 X126.165 Y127.441 E.02826
G1 X125.882 Y126.389 E.03417
G1 X125.724 Y125.313 E.0341
G1 X125.691 Y124.291 E.03207
G1 X125.771 Y123.254 E.03259
G1 X126.023 Y122.018 E.03957
G1 X126.425 Y120.856 E.03854
G1 X126.717 Y120.266 E.02064
G1 X126.582 Y119.241 E.03242
G1 X126.479 Y117.891 E.04246
G1 X126.443 Y116.502 E.04355
G1 X126.479 Y115.104 E.04386
G1 X126.582 Y113.753 E.04248
G1 X126.717 Y112.73 E.03235
G1 X126.421 Y112.128 E.02102
G1 X126.052 Y111.078 E.0349
G1 X125.793 Y109.888 E.03818
G1 X125.691 Y108.701 E.03735
G1 X125.728 Y107.636 E.03344
G1 X125.877 Y106.628 E.03193
G1 X126.079 Y105.822 E.02607
G1 X126.467 Y104.782 E.03479
G1 X125.192 Y100.946 E.12673
G1 X124.945 Y99.651 E.04134
G1 X124.952 Y98.305 E.04222
G1 X125.212 Y97.025 E.04095
G1 X125.581 Y97.101 F9000
G1 F1200
G1 X126.076 Y95.897 E.0408
G1 X126.799 Y94.82 E.04067
G1 X127.715 Y93.909 E.04052
G1 X128.792 Y93.193 E.04052
G1 X129.988 Y92.702 E.04057
G1 X131.26 Y92.453 E.04061
G1 X132.536 Y92.453 E.04001
G1 X133.267 Y92.571 E.02324
G1 X133.969 Y92.758 E.02276
G1 X135.204 Y93.323 E.04257
G1 X136.277 Y94.103 E.04162
G1 X136.885 Y94.723 E.02723
G1 X137.353 Y95.34 E.02427
G1 X137.957 Y96.456 E.03979
G1 X139.365 Y100.625 E.13797
G1 X139.957 Y100.96 E.02132
G1 X140.571 Y101.397 E.02362
G1 X141.15 Y101.888 E.0238
G1 X141.735 Y102.479 E.02608
G1 X142.346 Y103.235 E.03046
G1 X142.99 Y104.268 E.03818
G1 X143.57 Y105.53 E.04354
G1 X143.856 Y106.833 E.04184
G1 X143.8 Y107.956 E.03526
G1 X143.469 Y109.077 E.03666
G1 X142.585 Y110.503 E.05258
G1 X141.649 Y111.38 E.04024
G1 X140.746 Y111.882 E.03238
G1 X140.385 Y111.995 E.01187
G1 X140.436 Y112.509 E.01621
G1 X140.122 Y114.694 E.0692
G1 X140.039 Y115.508 E.02567
G1 X140.005 Y116.295 E.02468
G1 X140.027 Y117.03 E.02306
G1 X140.597 Y117.417 E.02161
G1 X141.426 Y118.153 E.03476
G1 X142.103 Y118.916 E.03197
G1 X142.549 Y119.529 E.02377
G1 X142.998 Y120.284 E.02755
G1 X143.376 Y121.091 E.02794
G1 X143.682 Y121.963 E.02896
G1 X143.918 Y122.984 E.03287
G1 X144.011 Y123.697 E.02253
G1 X144.045 Y124.412 E.02246
G1 X144 Y125.411 E.03133
G1 X143.851 Y126.357 E.03004
G1 X143.648 Y127.142 E.02542
G1 X143.306 Y128.07 E.03102
G1 X142.854 Y128.971 E.03158
G1 X142.415 Y129.661 E.02565
G1 X141.805 Y130.437 E.03095
G1 X141.11 Y131.143 E.03106
G1 X140.573 Y131.596 E.02202
G1 X139.914 Y132.061 E.02528
G1 X139.18 Y132.486 E.02659
G1 X138.255 Y132.898 E.03174
G1 X137.63 Y133.111 E.02071
G1 X136.981 Y133.279 E.02102
G1 X135.814 Y133.456 E.03702
G1 X135.098 Y133.486 E.02247
G1 X134.11 Y133.438 E.03101
G1 X133.286 Y133.31 E.02614
G1 X132.486 Y133.112 E.02585
G1 X131.667 Y132.823 E.02723
G1 X130.877 Y132.457 E.02728
G1 X130.27 Y132.105 E.022
G1 X129.42 Y131.502 E.03268
G1 X128.804 Y130.957 E.02579
G1 X128.244 Y130.364 E.0256
G1 X127.809 Y129.814 E.02197
G1 X127.237 Y128.936 E.03286
G1 X126.837 Y128.138 E.02799
G1 X126.526 Y127.333 E.02705
G1 X126.253 Y126.323 E.03282
G1 X126.101 Y125.289 E.03275
G1 X126.068 Y124.309 E.03077
G1 X126.143 Y123.317 E.03117
G1 X126.383 Y122.129 E.03801
G1 X126.777 Y120.991 E.03775
G1 X127.106 Y120.331 E.02312
G1 X126.958 Y119.207 E.03555
G1 X126.855 Y117.867 E.04215
G1 X126.82 Y116.507 E.04265
G1 X126.855 Y115.128 E.04326
G1 X126.958 Y113.787 E.04216
G1 X127.105 Y112.666 E.03546
G1 X126.773 Y111.992 E.02354
G1 X126.411 Y110.964 E.03417
G1 X126.167 Y109.844 E.03594
G1 X126.067 Y108.681 E.03661
G1 X126.103 Y107.681 E.03137
G1 X126.249 Y106.693 E.03131
G1 X126.442 Y105.924 E.02486
G1 X126.866 Y104.789 E.03797
G1 X125.554 Y100.84 E.13051
G1 X125.319 Y99.6 E.03957
G1 X125.329 Y98.327 E.03992
G1 X125.569 Y97.159 E.03736
G1 X125.935 Y97.233 F9000
G1 F1200
G1 X126.4 Y96.091 E.03868
G1 X127.079 Y95.073 E.03835
G1 X127.941 Y94.211 E.0382
G1 X128.954 Y93.535 E.0382
G1 X130.081 Y93.068 E.03825
G1 X131.279 Y92.83 E.03831
G1 X132.491 Y92.828 E.03801
G1 X133.179 Y92.938 E.02185
G1 X133.856 Y93.119 E.02195
G1 X135.029 Y93.657 E.04047
G1 X136.041 Y94.398 E.03935
G1 X136.593 Y94.961 E.0247
G1 X137.029 Y95.533 E.02256
G1 X137.605 Y96.592 E.0378
G1 X139.054 Y100.883 E.14199
G1 X139.747 Y101.273 E.02491
G1 X140.345 Y101.7 E.02305
G1 X140.9 Y102.17 E.0228
G1 X141.448 Y102.724 E.02442
G1 X142.045 Y103.463 E.0298
G1 X142.652 Y104.436 E.03597
G1 X143.219 Y105.669 E.04254
G1 X143.478 Y106.84 E.0376
G1 X143.425 Y107.914 E.03373
G1 X143.115 Y108.944 E.03371
G1 X142.279 Y110.282 E.04947
G1 X141.445 Y111.061 E.03579
G1 X140.583 Y111.541 E.03094
G1 X139.97 Y111.719 E.02001
G1 X140.059 Y112.481 E.02405
G1 X139.748 Y114.648 E.06863
G1 X139.663 Y115.481 E.02626
G1 X139.628 Y116.292 E.02545
G1 X139.656 Y117.234 E.02956
G1 X140.357 Y117.708 E.02652
G1 X141.152 Y118.412 E.03331
G1 X141.815 Y119.159 E.03132
G1 X142.229 Y119.729 E.02209
G1 X142.669 Y120.469 E.02698
G1 X143.03 Y121.242 E.02677
G1 X143.323 Y122.078 E.02775
G1 X143.545 Y123.043 E.03105
G1 X143.635 Y123.723 E.02152
G1 X143.668 Y124.405 E.0214
G1 X143.626 Y125.363 E.03007
G1 X143.48 Y126.29 E.02941
G1 X143.285 Y127.038 E.02425
G1 X142.964 Y127.911 E.02916
G1 X142.521 Y128.793 E.03094
G1 X142.102 Y129.45 E.02445
G1 X141.528 Y130.18 E.0291
G1 X140.847 Y130.872 E.03045
G1 X140.336 Y131.302 E.02094
G1 X139.718 Y131.738 E.02374
G1 X139 Y132.154 E.02602
G1 X138.126 Y132.544 E.03
G1 X137.515 Y132.752 E.02021
G1 X136.896 Y132.911 E.02005
G1 X135.788 Y133.08 E.03516
G1 X135.107 Y133.109 E.02135
G1 X134.157 Y133.063 E.02981
G1 X133.368 Y132.942 E.02504
G1 X132.603 Y132.753 E.02472
G1 X131.801 Y132.47 E.02666
G1 X131.059 Y132.127 E.02565
G1 X130.481 Y131.793 E.02092
G1 X129.662 Y131.213 E.03145
G1 X129.072 Y130.691 E.02469
G1 X128.534 Y130.123 E.02455
G1 X128.12 Y129.601 E.0209
G1 X127.569 Y128.757 E.0316
G1 X127.185 Y127.993 E.0268
G1 X126.887 Y127.225 E.02584
G1 X126.624 Y126.256 E.03147
G1 X126.477 Y125.266 E.0314
G1 X126.445 Y124.326 E.02947
G1 X126.515 Y123.38 E.02975
G1 X126.744 Y122.24 E.03644
G1 X127.13 Y121.126 E.03695
G1 X127.495 Y120.397 E.02559
G1 X127.333 Y119.173 E.0387
G1 X127.232 Y117.843 E.04184
G1 X127.198 Y116.502 E.04205
G1 X127.232 Y115.151 E.04236
G1 X127.333 Y113.821 E.04185
G1 X127.494 Y112.601 E.03858
G1 X127.125 Y111.855 E.02609
G1 X126.777 Y110.872 E.0327
G1 X126.538 Y109.776 E.03518
G1 X126.444 Y108.66 E.0351
G1 X126.479 Y107.705 E.02998
G1 X126.617 Y106.775 E.02947
G1 X126.801 Y106.042 E.02371
G1 X127.134 Y105.116 E.03086
G1 X127.277 Y104.829 E.01005
G1 X125.922 Y100.756 E.13458
G1 X125.696 Y99.583 E.03746
G1 X125.702 Y98.383 E.03762
G1 X125.923 Y97.292 E.03489
G1 X126.29 Y97.365 F9000
G1 F1200
G1 X126.725 Y96.283 E.03657
G1 X127.36 Y95.325 E.03604
G1 X128.167 Y94.514 E.03589
G1 X129.116 Y93.875 E.03588
G1 X130.174 Y93.434 E.03592
G1 X131.299 Y93.207 E.036
G1 X132.447 Y93.202 E.03598
G1 X133.11 Y93.309 E.02105
G1 X133.742 Y93.479 E.02052
G1 X134.853 Y93.991 E.03836
G1 X135.805 Y94.693 E.03708
G1 X136.3 Y95.2 E.02223
G1 X136.705 Y95.727 E.02085
G1 X137.253 Y96.729 E.03579
G1 X138.744 Y101.141 E.14602
G1 X139.536 Y101.586 E.02851
G1 X140.107 Y101.992 E.02198
G1 X140.65 Y102.452 E.02229
G1 X141.16 Y102.968 E.02276
G1 X141.745 Y103.691 E.02914
G1 X142.314 Y104.605 E.03377
G1 X142.868 Y105.809 E.04155
G1 X143.1 Y106.849 E.03342
G1 X143.057 Y107.829 E.03075
G1 X142.761 Y108.81 E.03214
G1 X141.973 Y110.06 E.04632
G1 X141.242 Y110.743 E.03139
G1 X140.42 Y111.2 E.02949
G1 X139.553 Y111.443 E.02823
G1 X139.682 Y112.454 E.03196
G1 X139.373 Y114.602 E.06804
G1 X139.287 Y115.454 E.02685
G1 X139.251 Y116.289 E.02622
G1 X139.285 Y117.439 E.03607
G1 X140.116 Y117.999 E.03143
G1 X140.894 Y118.687 E.03255
G1 X141.516 Y119.388 E.0294
G1 X141.91 Y119.93 E.02099
G1 X142.331 Y120.638 E.02584
G1 X142.678 Y121.376 E.02557
G1 X142.963 Y122.192 E.02711
G1 X143.173 Y123.101 E.02924
G1 X143.258 Y123.75 E.02052
G1 X143.291 Y124.398 E.02034
G1 X143.251 Y125.315 E.02879
G1 X143.109 Y126.222 E.02878
G1 X142.923 Y126.934 E.02307
G1 X142.622 Y127.751 E.02731
G1 X142.188 Y128.615 E.03029
G1 X141.789 Y129.239 E.02325
G1 X141.252 Y129.923 E.02725
G1 X140.585 Y130.601 E.02984
G1 X140.1 Y131.008 E.01985
G1 X139.521 Y131.416 E.0222
G1 X138.819 Y131.823 E.02544
G1 X137.996 Y132.19 E.02826
G1 X137.414 Y132.388 E.01927
G1 X136.811 Y132.544 E.01953
G1 X135.761 Y132.704 E.0333
G1 X135.116 Y132.731 E.02024
G1 X134.204 Y132.689 E.02862
G1 X133.45 Y132.574 E.02393
G1 X132.719 Y132.395 E.0236
G1 X131.951 Y132.124 E.02553
G1 X131.239 Y131.796 E.02457
G1 X130.691 Y131.48 E.01984
G1 X129.904 Y130.923 E.03022
G1 X129.34 Y130.426 E.02358
G1 X128.824 Y129.882 E.02351
G1 X128.431 Y129.387 E.01982
G1 X127.901 Y128.577 E.03034
G1 X127.533 Y127.848 E.02561
G1 X127.248 Y127.116 E.02463
G1 X126.996 Y126.189 E.03012
G1 X126.854 Y125.242 E.03004
G1 X126.822 Y124.324 E.0288
G1 X126.89 Y123.42 E.02841
G1 X127.111 Y122.328 E.03495
G1 X127.481 Y121.262 E.03536
G1 X127.889 Y120.454 E.02838
G1 X127.798 Y119.907 E.0174
G1 X127.708 Y119.135 E.02436
G1 X127.608 Y117.819 E.04137
G1 X127.575 Y116.497 E.04145
G1 X127.608 Y115.175 E.04146
G1 X127.708 Y113.859 E.04139
G1 X127.798 Y113.087 E.02437
G1 X127.888 Y112.544 E.01725
G1 X127.476 Y111.718 E.02894
G1 X127.143 Y110.78 E.03121
G1 X126.91 Y109.708 E.0344
G1 X126.821 Y108.641 E.03358
G1 X126.856 Y107.73 E.02859
G1 X126.985 Y106.857 E.02765
G1 X127.159 Y106.16 E.02253
G1 X127.485 Y105.255 E.03018
G1 X127.685 Y104.859 E.0139
G1 X126.289 Y100.671 E.13839
G1 X126.073 Y99.565 E.03536
G1 X126.076 Y98.438 E.03532
G1 X126.278 Y97.424 E.03241
G1 X126.645 Y97.496 F9000
G1 F1200
G1 X127.05 Y96.475 E.03445
G1 X127.642 Y95.577 E.03372
G1 X128.394 Y94.815 E.03357
G1 X129.28 Y94.215 E.03356
G1 X130.268 Y93.799 E.0336
G1 X131.321 Y93.584 E.03369
G1 X132.403 Y93.577 E.03395
G1 X133.022 Y93.675 E.01963
G1 X133.628 Y93.838 E.01969
G1 X134.676 Y94.325 E.03622
G1 X135.568 Y94.986 E.03481
G1 X136.009 Y95.439 E.01981
G1 X136.382 Y95.922 E.01916
G1 X136.901 Y96.866 E.03375
G1 X138.433 Y101.399 E.15004
G1 X139.326 Y101.899 E.03211
G1 X139.87 Y102.285 E.0209
G1 X140.4 Y102.735 E.02178
G1 X140.873 Y103.213 E.02109
G1 X141.444 Y103.919 E.02848
G1 X141.977 Y104.773 E.03156
G1 X142.517 Y105.949 E.04056
G1 X142.722 Y106.858 E.02922
G1 X142.681 Y107.788 E.02919
G1 X142.409 Y108.674 E.02909
G1 X141.668 Y109.837 E.04321
G1 X141.038 Y110.425 E.02702
G1 X140.257 Y110.859 E.02803
G1 X139.452 Y111.078 E.02617
G1 X139.124 Y111.097 E.0103
G1 X139.305 Y112.427 E.04209
G1 X138.999 Y114.556 E.06744
G1 X138.911 Y115.427 E.02744
G1 X138.873 Y116.283 E.02686
G1 X138.886 Y117.134 E.02671
G1 X138.929 Y117.655 E.01639
G1 X139.876 Y118.29 E.03574
G1 X140.635 Y118.962 E.03179
G1 X141.217 Y119.618 E.02749
G1 X141.591 Y120.13 E.0199
G1 X141.994 Y120.807 E.02469
G1 X142.325 Y121.51 E.02437
G1 X142.604 Y122.307 E.02648
G1 X142.8 Y123.159 E.02742
G1 X142.884 Y123.792 E.02
G1 X142.914 Y124.391 E.01881
G1 X142.877 Y125.267 E.02751
G1 X142.738 Y126.154 E.02813
G1 X142.561 Y126.829 E.02189
G1 X142.28 Y127.591 E.02547
G1 X141.856 Y128.436 E.02965
G1 X141.477 Y129.028 E.02204
G1 X140.976 Y129.666 E.02542
G1 X140.322 Y130.33 E.02922
G1 X139.864 Y130.714 E.01876
