; generated by PrusaSlicer 2.5.0+MacOS-arm64 on 2023-01-14 at 17:51:10 UTC

; 

; external perimeters extrusion width = 0.45mm
; perimeters extrusion width = 0.45mm
; infill extrusion width = 0.45mm
; solid infill extrusion width = 0.45mm
; top infill extrusion width = 0.40mm
; first layer extrusion width = 0.42mm

M107
;TYPE:Custom
G90 ; use absolute coordinates
M83 ; extruder relative mode
M140 S60 ; set final bed temp
M104 S150 ; set temporary nozzle temp to prevent oozing during homing
G4 S10 ; allow partial nozzle warmup
G28 ; home all axis
G1 Z50 F240
G1 X2 Y10 F3000
M104 S210 ; set final nozzle temp
M190 S60 ; wait for bed temp to stabilize
M109 S210 ; wait for nozzle temp to stabilize
G1 Z0.28 F240
G92 E0
G1 Y140 E10 F1500 ; prime the nozzle
G1 X2.3 F5000
G92 E0
G1 Y10 E10 F1200 ; prime the nozzle
G92 E0
G21 ; set units to millimeters
G90 ; use absolute coordinates
M83 ; use relative distances for extrusion
; Filament gcode
M107
;LAYER_CHANGE
;Z:0.2
;HEIGHT:0.2
;BEFORE_LAYER_CHANGE
G92 E0
;0.2


G1 E-6 F3600
G1 Z.2 F9000
;AFTER_LAYER_CHANGE
;0.2
G1 X93.719 Y93.719
G1 E6 F2400
M204 S500
;TYPE:Skirt/Brim
;WIDTH:0.42
G1 F1200
G1 X95.727 Y91.712 E.08901
G1 X97.125 Y90.871 E.05115
G1 X98.115 Y90.723 E.03138
G1 X131.885 Y90.723 E1.05885
G1 X133.468 Y91.117 E.05115
G1 X134.273 Y91.712 E.03138
G1 X137.788 Y95.227 E.15585
G1 X138.629 Y96.625 E.05115
G1 X138.777 Y97.615 E.03138
G1 X138.777 Y104.385 E.21229
G1 X138.7 Y105.103 E.02262
G1 X133.7 Y128.103 E.73799
G1 X132.788 Y129.773 E.05968
G1 X129.273 Y133.288 E.15585
G1 X127.875 Y134.129 E.05115
G1 X126.885 Y134.277 E.03138
G1 X103.115 Y134.277 E.74531
G1 X101.532 Y133.883 E.05115
G1 X100.727 Y133.288 E.03138
G1 X97.212 Y129.773 E.15585
G1 X96.3 Y128.103 E.05968
G1 X91.3 Y105.103 E.73799
G1 X91.223 Y104.385 E.02262
G1 X91.223 Y97.615 E.21229
G1 X91.617 Y96.032 E.05115
G1 X92.212 Y95.227 E.03138
G1 X93.677 Y93.762 E.06496
G1 E-4.2 F3600
;WIPE_START
G1 F7200
G1 X95.727 Y91.712 E-1.37695
G1 X96.328 Y91.351 E-.33305
;WIPE_END
G1 E-.09 F3600
G1 X96.441 Y96.526 F9000
G1 E6 F2400
G1 F1200
G1 X97.033 Y95.935 E.02622
G1 X97.729 Y95.394 E.02764
G1 X99.993 Y94.632 E.0749
G1 X129.938 Y94.636 E.9389
G1 X131.169 Y94.891 E.03944
G1 X132.354 Y95.459 E.0412
G1 X133.626 Y96.602 E.0536
G1 X134.273 Y97.537 E.03565
G1 X134.843 Y99.347 E.05951
G1 X134.87 Y102.428 E.09661
G1 X134.54 Y103.847 E.04567
G1 X134.051 Y104.844 E.03481
G1 X132.777 Y106.228 E.059
G1 X131.62 Y106.933 E.04246
G1 X130.379 Y107.308 E.04066
G1 X129.868 Y107.335 E.01605
G1 X129.868 Y125.457 E.56818
G1 X129.476 Y127.02 E.05053
G1 X128.62 Y128.413 E.05126
G1 X127.967 Y129.065 E.02893
G1 X127.271 Y129.606 E.02764
G1 X125.008 Y130.368 E.07488
G1 X105.043 Y130.368 E.62598
G1 X103.48 Y129.976 E.05053
G1 X102.087 Y129.12 E.05126
G1 X101.435 Y128.467 E.02893
G1 X100.894 Y127.771 E.02764
G1 X100.132 Y125.508 E.07488
G1 X100.132 Y107.329 E.57
G1 X99.587 Y107.302 E.01713
G1 X98.284 Y106.891 E.04281
G1 X97.259 Y106.259 E.03778
G1 X96.365 Y105.389 E.0391
G1 X95.618 Y104.234 E.04314
G1 X95.147 Y102.579 E.05395
G1 X95.144 Y99.45 E.0981
G1 X95.546 Y97.928 E.04936
G1 X96.399 Y96.569 E.05033
G1 X96.666 Y96.835 F9000
G1 F1200
G1 X97.291 Y96.21 E.02772
G1 X97.934 Y95.712 E.02553
G1 X100.023 Y95.009 E.0691
G1 X129.918 Y95.013 E.93732
G1 X131.069 Y95.255 E.03687
G1 X132.165 Y95.786 E.0382
G1 X133.355 Y96.866 E.0504
G1 X133.946 Y97.727 E.03272
G1 X134.466 Y99.379 E.0543
G1 X134.492 Y102.409 E.09501
G1 X134.178 Y103.739 E.04286
G1 X133.726 Y104.652 E.03195
G1 X132.518 Y105.952 E.05564
G1 X131.488 Y106.579 E.0378
G1 X130.295 Y106.94 E.0391
G1 X129.491 Y106.969 E.02522
G1 X129.491 Y125.433 E.57894
G1 X129.118 Y126.899 E.04742
G1 X128.338 Y128.161 E.04653
G1 X127.709 Y128.79 E.02787
G1 X127.066 Y129.288 E.02552
G1 X124.977 Y129.991 E.06909
G1 X105.067 Y129.991 E.62427
G1 X103.601 Y129.618 E.04742
G1 X102.339 Y128.838 E.04653
G1 X101.71 Y128.209 E.02787
G1 X101.212 Y127.566 E.02552
G1 X100.509 Y125.477 E.06909
G1 X100.509 Y106.96 E.5806
G1 X99.672 Y106.934 E.02626
G1 X98.461 Y106.557 E.03978
G1 X97.507 Y105.973 E.03507
G1 X96.643 Y105.133 E.03778
G1 X95.973 Y104.103 E.03853
G1 X95.516 Y102.501 E.05224
G1 X95.515 Y99.521 E.09343
G1 X95.882 Y98.102 E.04597
G1 X96.633 Y96.886 E.04482
G1 X96.945 Y97.089 F9000
G1 F1200
G1 X97.549 Y96.485 E.02678
G1 X98.14 Y96.029 E.0234
G1 X100.054 Y95.386 E.06331
G1 X129.897 Y95.39 E.93573
G1 X130.966 Y95.619 E.03427
G1 X131.974 Y96.113 E.03518
G1 X133.084 Y97.129 E.04719
G1 X133.618 Y97.915 E.02982
G1 X134.089 Y99.41 E.04913
G1 X134.115 Y102.388 E.09339
G1 X133.816 Y103.629 E.04001
G1 X133.401 Y104.458 E.02908
G1 X132.261 Y105.676 E.0523
G1 X131.357 Y106.225 E.03318
G1 X130.211 Y106.571 E.03753
G1 X129.113 Y106.599 E.03441
G1 X129.113 Y125.41 E.5898
G1 X128.782 Y126.727 E.04257
G1 X128.055 Y127.911 E.04355
G1 X127.451 Y128.515 E.02678
G1 X126.86 Y128.971 E.0234
G1 X124.947 Y129.613 E.0633
G1 X105.09 Y129.613 E.62259
G1 X103.773 Y129.282 E.04257
G1 X102.589 Y128.555 E.04355
G1 X101.985 Y127.951 E.02678
G1 X101.529 Y127.36 E.0234
G1 X100.887 Y125.447 E.0633
G1 X100.887 Y106.588 E.5913
G1 X99.758 Y106.566 E.0354
G1 X98.595 Y106.204 E.03817
G1 X97.755 Y105.689 E.03092
G1 X96.921 Y104.878 E.03644
G1 X96.306 Y103.923 E.03562
G1 X95.887 Y102.425 E.0488
G1 X95.887 Y99.59 E.08887
G1 X96.218 Y98.273 E.04257
G1 X96.913 Y97.141 E.04167
G1 X97.227 Y97.341 F9000
G1 F1200
G1 X97.806 Y96.761 E.02571
G1 X98.344 Y96.348 E.02127
G1 X100.084 Y95.764 E.05755
G1 X129.877 Y95.767 E.93412
G1 X130.863 Y95.982 E.03163
G1 X131.781 Y96.438 E.03216
G1 X132.811 Y97.39 E.04398
G1 X133.29 Y98.103 E.02692
G1 X133.712 Y99.441 E.044
G1 X133.738 Y102.368 E.09176
G1 X133.456 Y103.517 E.03711
G1 X133.078 Y104.263 E.0262
G1 X132.005 Y105.398 E.04898
G1 X131.225 Y105.871 E.0286
G1 X130.127 Y106.202 E.03595
G1 X128.736 Y106.228 E.04362
G1 X128.736 Y125.386 E.60069
G1 X128.424 Y126.605 E.03946
G1 X127.773 Y127.659 E.03885
G1 X127.194 Y128.239 E.02571
G1 X126.656 Y128.652 E.02127
G1 X124.916 Y129.236 E.05754
G1 X105.114 Y129.236 E.62087
G1 X103.895 Y128.924 E.03946
G1 X102.841 Y128.273 E.03885
G1 X102.261 Y127.694 E.02571
G1 X101.848 Y127.156 E.02127
G1 X101.264 Y125.416 E.05754
G1 X101.264 Y106.214 E.60206
G1 X99.841 Y106.197 E.0446
G1 X98.77 Y105.869 E.03512
G1 X98.002 Y105.403 E.02817
G1 X97.199 Y104.622 E.03511
G1 X96.66 Y103.792 E.03103
G1 X96.264 Y102.398 E.04545
G1 X96.264 Y99.614 E.08728
G1 X96.576 Y98.395 E.03946
G1 X97.195 Y97.392 E.03697
G1 X97.509 Y97.591 F9000
G1 F1200
G1 X98.064 Y97.037 E.0246
G1 X98.548 Y96.666 E.01912
G1 X100.115 Y96.141 E.0518
G1 X129.856 Y96.144 E.9325
G1 X130.757 Y96.345 E.02895
G1 X131.587 Y96.762 E.02913
G1 X132.537 Y97.65 E.04077
G1 X132.961 Y98.289 E.02405
G1 X133.336 Y99.473 E.03893
G1 X133.361 Y102.346 E.09011
G1 X133.096 Y103.403 E.03417
G1 X132.755 Y104.066 E.02335
G1 X131.786 Y105.09 E.04421
G1 X131.092 Y105.517 E.02555
G1 X130.044 Y105.833 E.03432
G1 X128.359 Y105.854 E.05283
G1 X128.359 Y125.362 E.61168
G1 X128.087 Y126.433 E.03463
G1 X127.491 Y127.409 E.03586
G1 X126.936 Y127.963 E.0246
G1 X126.452 Y128.334 E.01912
G1 X124.885 Y128.859 E.05179
G1 X105.138 Y128.859 E.61918
G1 X104.067 Y128.587 E.03463
G1 X103.091 Y127.991 E.03586
G1 X102.537 Y127.436 E.0246
G1 X102.166 Y126.952 E.01912
G1 X101.641 Y125.385 E.05179
G1 X101.641 Y105.842 E.61279
G1 X99.873 Y105.82 E.05543
G1 X98.944 Y105.534 E.03047
G1 X98.249 Y105.117 E.02542
G1 X97.477 Y104.366 E.03377
G1 X97.014 Y103.66 E.02648
G1 X96.641 Y102.371 E.04207
G1 X96.641 Y99.638 E.0857
G1 X96.913 Y98.567 E.03463
G1 X97.478 Y97.642 E.03398
G1 X97.792 Y97.842 F9000
G1 F1200
G1 X98.322 Y97.312 E.0235
G1 X98.752 Y96.985 E.01695
G1 X100.145 Y96.518 E.04608
G1 X129.834 Y96.521 E.93087
G1 X130.65 Y96.707 E.02622
G1 X131.391 Y97.085 E.02609
G1 X132.261 Y97.908 E.03756
G1 X132.631 Y98.473 E.02119
G1 X132.959 Y99.504 E.03391
G1 X132.983 Y102.325 E.08843
G1 X132.736 Y103.288 E.03117
G1 X132.433 Y103.868 E.02052
G1 X131.565 Y104.784 E.03957
G1 X130.958 Y105.164 E.02245
G1 X129.962 Y105.464 E.03264
G1 X127.982 Y105.478 E.06206
G1 X127.982 Y125.338 E.62268
G1 X127.729 Y126.31 E.03149
G1 X127.208 Y127.158 E.03119
G1 X126.678 Y127.688 E.0235
G1 X126.248 Y128.015 E.01695
G1 X124.855 Y128.482 E.04607
G1 X105.162 Y128.482 E.61746
G1 X104.19 Y128.229 E.03149
G1 X103.342 Y127.708 E.03119
G1 X102.812 Y127.178 E.0235
G1 X102.485 Y126.748 E.01695
G1 X102.018 Y125.355 E.04607
G1 X102.018 Y105.469 E.62351
G1 X99.905 Y105.443 E.06625
G1 X99.117 Y105.199 E.02588
G1 X98.495 Y104.831 E.02265
G1 X97.755 Y104.111 E.03237
G1 X97.346 Y103.479 E.02362
G1 X97.018 Y102.344 E.03703
G1 X97.018 Y99.662 E.0841
G1 X97.271 Y98.69 E.03149
G1 X97.76 Y97.894 E.02931
G1 X98.073 Y98.094 F9000
G1 F1200
G1 X98.579 Y97.588 E.02241
G1 X98.955 Y97.304 E.01477
G1 X100.176 Y96.895 E.04039
G1 X129.812 Y96.898 E.92922
G1 X130.54 Y97.068 E.02344
G1 X131.192 Y97.407 E.02304
G1 X131.984 Y98.164 E.03435
G1 X132.301 Y98.656 E.01836
G1 X132.582 Y99.536 E.02896
G1 X132.606 Y102.302 E.08673
G1 X132.377 Y103.169 E.02812
G1 X132.113 Y103.668 E.01769
G1 X131.342 Y104.479 E.03508
G1 X130.823 Y104.81 E.0193
G1 X129.879 Y105.095 E.03092
G1 X127.605 Y105.102 E.0713
G1 X127.605 Y125.313 E.63371
G1 X127.373 Y126.185 E.02831
G1 X126.927 Y126.906 E.02658
G1 X126.421 Y127.412 E.02241
G1 X126.045 Y127.696 E.01477
G1 X124.824 Y128.105 E.04038
G1 X105.187 Y128.105 E.61571
G1 X104.315 Y127.873 E.02831
G1 X103.594 Y127.427 E.02658
G1 X103.088 Y126.921 E.02241
G1 X102.804 Y126.545 E.01477
G1 X102.395 Y125.324 E.04038
G1 X102.395 Y105.097 E.63423
G1 X99.938 Y105.067 E.07705
G1 X99.288 Y104.862 E.02135
G1 X98.741 Y104.544 E.01984
G1 X98.034 Y103.856 E.03092
G1 X97.679 Y103.299 E.02072
G1 X97.395 Y102.318 E.03204
G1 X97.395 Y99.687 E.08248
G1 X97.627 Y98.815 E.02831
G1 X98.042 Y98.145 E.0247
G1 X98.355 Y98.345 F9000
G1 F1200
G1 X98.836 Y97.865 E.02132
G1 X99.156 Y97.624 E.01257
G1 X100.206 Y97.272 E.03473
G1 X129.79 Y97.276 E.92759
G1 X130.387 Y97.414 E.01921
G1 X130.994 Y97.728 E.02141
G1 X131.704 Y98.418 E.03105
G1 X131.969 Y98.837 E.01555
G1 X132.205 Y99.568 E.02409
G1 X132.229 Y102.279 E.08499
G1 X132.02 Y103.048 E.02499
G1 X131.794 Y103.465 E.01485
G1 X131.087 Y104.2 E.03198
G1 X130.645 Y104.477 E.01637
G1 X129.851 Y104.718 E.02603
G1 X127.228 Y104.726 E.08223
G1 X127.228 Y125.287 E.64468
G1 X127.017 Y126.058 E.02508
G1 X126.645 Y126.655 E.02203
G1 X126.164 Y127.135 E.02132
G1 X125.844 Y127.376 E.01257
G1 X124.794 Y127.728 E.03472
G1 X105.213 Y127.728 E.61394
G1 X104.442 Y127.517 E.02508
G1 X103.845 Y127.145 E.02203
G1 X103.365 Y126.664 E.02132
G1 X103.124 Y126.344 E.01257
G1 X102.772 Y125.294 E.03472
G1 X102.772 Y104.724 E.64495
G1 X99.972 Y104.69 E.08779
G1 X99.425 Y104.51 E.01806
G1 X98.987 Y104.257 E.01587
G1 X98.314 Y103.602 E.02945
G1 X98.012 Y103.122 E.01778
G1 X97.772 Y102.291 E.02712
G1 X97.772 Y99.713 E.08083
G1 X97.983 Y98.942 E.02508
G1 X98.323 Y98.396 E.02014
G1 X98.636 Y98.597 F9000
G1 F1200
G1 X99.092 Y98.141 E.02022
G1 X99.357 Y97.945 E.01034
G1 X100.237 Y97.649 E.02911
G1 X129.767 Y97.653 E.9259
G1 X130.275 Y97.775 E.01636
G1 X130.792 Y98.048 E.01833
G1 X131.423 Y98.669 E.02777
G1 X131.637 Y99.016 E.01277
G1 X131.828 Y99.601 E.01931
G1 X131.851 Y102.255 E.0832
G1 X131.663 Y102.923 E.02178
G1 X131.477 Y103.259 E.01202
G1 X130.835 Y103.919 E.02889
G1 X130.469 Y104.143 E.01345
G1 X129.822 Y104.341 E.02123
G1 X126.851 Y104.349 E.09314
G1 X126.851 Y125.26 E.65563
G1 X126.662 Y125.929 E.02179
G1 X126.364 Y126.403 E.01755
G1 X125.908 Y126.859 E.02022
G1 X125.643 Y127.055 E.01034
G1 X124.763 Y127.351 E.02911
G1 X105.24 Y127.351 E.61213
G1 X104.571 Y127.162 E.02179
G1 X104.097 Y126.864 E.01755
G1 X103.641 Y126.408 E.02022
G1 X103.445 Y126.143 E.01034
G1 X103.149 Y125.263 E.02911
G1 X103.149 Y104.35 E.65573
G1 X100.062 Y104.323 E.0968
G1 X99.563 Y104.159 E.01647
G1 X99.199 Y103.944 E.01325
G1 X98.618 Y103.379 E.02539
G1 X98.365 Y102.987 E.01465
G1 X98.149 Y102.263 E.02369
G1 X98.149 Y99.74 E.0791
G1 X98.338 Y99.071 E.02179
G1 X98.604 Y98.648 E.01567
G1 X98.917 Y98.85 F9000
G1 F1200
G1 X99.348 Y98.419 E.01911
G1 X99.556 Y98.266 E.00808
G1 X100.268 Y98.026 E.02355
G1 X129.745 Y98.03 E.92425
G1 X130.12 Y98.119 E.01207
G1 X130.589 Y98.368 E.01667
G1 X131.138 Y98.918 E.02436
G1 X131.303 Y99.192 E.01003
G1 X131.452 Y99.635 E.01464
G1 X131.474 Y102.229 E.08135
G1 X131.309 Y102.794 E.01846
G1 X131.163 Y103.049 E.00921
G1 X130.585 Y103.636 E.02583
G1 X130.296 Y103.808 E.01053
G1 X129.792 Y103.964 E.01655
G1 X126.474 Y103.973 E.10403
G1 X126.474 Y125.232 E.66655
G1 X126.308 Y125.796 E.01842
G1 X126.083 Y126.15 E.01318
G1 X125.652 Y126.581 E.01911
G1 X125.444 Y126.734 E.00808
G1 X124.732 Y126.974 E.02354
G1 X105.268 Y126.974 E.61028
G1 X104.704 Y126.808 E.01842
G1 X104.35 Y126.583 E.01318
G1 X103.919 Y126.152 E.01911
G1 X103.766 Y125.944 E.00808
G1 X103.526 Y125.232 E.02354
G1 X103.526 Y103.974 E.66654
G1 X100.151 Y103.955 E.10582
G1 X99.702 Y103.807 E.01484
G1 X99.413 Y103.633 E.01058
G1 X98.92 Y103.153 E.02156
G1 X98.717 Y102.847 E.01154
G1 X98.526 Y102.233 E.02014
G1 X98.526 Y99.768 E.0773
G1 X98.692 Y99.204 E.01842
G1 X98.885 Y98.9 E.0113
G1 X99.198 Y99.102 F9000
G1 F1200
G1 X99.604 Y98.696 E.018
G1 X99.754 Y98.588 E.00579
G1 X100.299 Y98.403 E.01806
G1 X129.724 Y98.407 E.92259
G1 X129.965 Y98.464 E.00777
G1 X130.386 Y98.687 E.01495
G1 X130.852 Y99.164 E.02091
G1 X130.955 Y99.338 E.00633
G1 X131.075 Y99.672 E.01113
G1 X131.097 Y102.202 E.07934
G1 X130.956 Y102.66 E.01501
G1 X130.852 Y102.836 E.00641
G1 X130.336 Y103.352 E.02289
G1 X130.158 Y103.457 E.00647
G1 X129.76 Y103.587 E.01315
G1 X126.097 Y103.597 E.11484
G1 X126.097 Y125.202 E.67741
G1 X125.956 Y125.658 E.01496
G1 X125.802 Y125.898 E.00892
G1 X125.396 Y126.304 E.018
G1 X125.246 Y126.412 E.00579
G1 X124.701 Y126.597 E.01806
G1 X105.298 Y126.597 E.60838
G1 X104.842 Y126.456 E.01496
G1 X104.602 Y126.302 E.00892
G1 X104.196 Y125.896 E.018
G1 X104.088 Y125.746 E.00579
G1 X103.903 Y125.201 E.01806
G1 X103.903 Y103.597 E.67737
G1 X100.24 Y103.587 E.11484
G1 X99.842 Y103.457 E.01315
G1 X99.631 Y103.325 E.00778
G1 X99.198 Y102.898 E.01909
G1 X99.066 Y102.703 E.00738
G1 X98.903 Y102.202 E.0165
G1 X98.903 Y99.798 E.0754
G1 X99.044 Y99.342 E.01496
G1 X99.165 Y99.153 E.00704
G1 X99.477 Y99.357 F9000
G1 F1200
G1 X99.858 Y98.975 E.0169
G1 X99.948 Y98.912 E.00345
G1 X100.331 Y98.78 E.01269
G1 X129.702 Y98.784 E.92091
G1 X129.816 Y98.811 E.00369
G1 X130.141 Y98.975 E.01142
G1 X130.544 Y99.382 E.01795
G1 X130.607 Y99.485 E.00379
G1 X130.709 Y99.768 E.00944
G1 X130.72 Y102.171 E.07534
G1 X130.606 Y102.517 E.01142
G1 X130.544 Y102.617 E.00369
G1 X130.117 Y103.044 E.01893
G1 X130.017 Y103.106 E.00369
G1 X129.671 Y103.22 E.01144
G1 X125.72 Y103.22 E.12388
G1 X125.72 Y125.171 E.68826
G1 X125.607 Y125.515 E.01136
G1 X125.522 Y125.644 E.00484
G1 X125.142 Y126.025 E.01686
G1 X125.052 Y126.088 E.00345
G1 X124.669 Y126.22 E.0127
G1 X105.329 Y126.22 E.60639
G1 X104.985 Y126.107 E.01136
G1 X104.856 Y126.022 E.00484
G1 X104.475 Y125.642 E.01686
G1 X104.412 Y125.552 E.00345
G1 X104.28 Y125.169 E.0127
G1 X104.28 Y103.22 E.68821
G1 X100.329 Y103.22 E.12388
G1 X99.985 Y103.107 E.01136
G1 X99.856 Y103.022 E.00484
G1 X99.475 Y102.642 E.01686
G1 X99.412 Y102.552 E.00345
G1 X99.28 Y102.169 E.0127
G1 X99.28 Y99.829 E.07337
G1 X99.393 Y99.485 E.01136
G1 X99.444 Y99.407 E.00293
G1 X99.754 Y99.614 F9000
G1 F1200
G1 X100.11 Y99.257 E.01581
G1 X100.364 Y99.157 E.00856
G1 X129.65 Y99.157 E.91822
G1 X129.9 Y99.267 E.00856
G1 X130.243 Y99.61 E.01522
G1 X130.343 Y99.864 E.00856
G1 X130.343 Y102.136 E.07121
G1 X130.243 Y102.39 E.00856
G1 X129.863 Y102.761 E.01666
G1 X129.636 Y102.843 E.00757
G1 X125.343 Y102.843 E.1346
G1 X125.343 Y125.136 E.69898
G1 X125.243 Y125.39 E.00856
G1 X124.89 Y125.743 E.01566
G1 X124.636 Y125.843 E.00856
G1 X105.364 Y125.843 E.60423
G1 X105.11 Y125.743 E.00856
G1 X104.757 Y125.39 E.01566
G1 X104.657 Y125.136 E.00856
G1 X104.657 Y102.843 E.69898
G1 X100.364 Y102.843 E.1346
G1 X100.137 Y102.761 E.00757
G1 X99.757 Y102.39 E.01666
G1 X99.657 Y102.136 E.00856
G1 X99.657 Y99.864 E.07121
