; generated by PrusaSlicer 2.5.0+MacOS-arm64 on 2023-01-17 at 22:17:24 UTC

; 

; external perimeters extrusion width = 0.45mm
; perimeters extrusion width = 0.45mm
; infill extrusion width = 0.45mm
; solid infill extrusion width = 0.45mm
; top infill extrusion width = 0.40mm
; first layer extrusion width = 0.42mm

M107
;TYPE:Custom
G90 ; use absolute coordinates
M83 ; extruder relative mode
M140 S60 ; set final bed temp
M104 S150 ; set temporary nozzle temp to prevent oozing during homing
G4 S10 ; allow partial nozzle warmup
G28 ; home all axis
G1 Z50 F240
G1 X2 Y10 F3000
M104 S210 ; set final nozzle temp
M190 S60 ; wait for bed temp to stabilize
M109 S210 ; wait for nozzle temp to stabilize
G1 Z0.28 F240
G92 E0
G1 Y140 E10 F1500 ; prime the nozzle
G1 X2.3 F5000
G92 E0
G1 Y10 E10 F1200 ; prime the nozzle
G92 E0
G21 ; set units to millimeters
G90 ; use absolute coordinates
M83 ; use relative distances for extrusion
; Filament gcode
M107
;LAYER_CHANGE
;Z:0.2
;HEIGHT:0.2
;BEFORE_LAYER_CHANGE
G92 E0
;0.2


G1 E-6 F3600
G1 Z.2 F9000
;AFTER_LAYER_CHANGE
;0.2
G1 X33.654 Y64.71
G1 E6 F2400
M204 S500
;TYPE:Skirt/Brim
;WIDTH:0.42
G1 F1200
G1 X34.949 Y64.147 E.04427
G1 X36.476 Y63.666 E.0502
G1 X38.234 Y63.332 E.05613
G1 X39.919 Y63.223 E.05293
G1 X190.09 Y63.223 E4.70851
G1 X191.431 Y63.294 E.04212
G1 X192.827 Y63.507 E.04427
G1 X195.051 Y64.147 E.07258
G1 X196.346 Y64.71 E.04427
G1 X197.453 Y65.322 E.03966
G1 X198.77 Y66.233 E.0502
G1 X199.839 Y67.155 E.04427
G1 X201.381 Y68.882 E.07258
G1 X202.178 Y70.047 E.04426
G1 X202.936 Y71.457 E.0502
G1 X203.42 Y72.626 E.03966
G1 X203.834 Y73.976 E.04427
G1 X204.222 Y76.258 E.07258
G1 X204.277 Y77.419 E.03645
G1 X204.277 Y147.581 E2.1999
G1 X204.222 Y148.742 E.03645
G1 X203.956 Y150.513 E.05613
G1 X203.531 Y152.057 E.0502
G1 X202.936 Y153.543 E.0502
G1 X201.999 Y155.238 E.06074
G1 X201.057 Y156.533 E.0502
G1 X199.976 Y157.714 E.0502
G1 X198.77 Y158.767 E.0502
G1 X197.29 Y159.774 E.05613
G1 X196.346 Y160.29 E.03372
G1 X195.051 Y160.853 E.04427
G1 X193.524 Y161.334 E.0502
G1 X191.766 Y161.668 E.05613
G1 X190.081 Y161.777 E.05292
G1 X39.656 Y161.771 E4.71649
G1 X38.234 Y161.668 E.04469
G1 X36.476 Y161.334 E.05613
G1 X34.949 Y160.853 E.0502
G1 X33.957 Y160.436 E.03372
G1 X32.71 Y159.774 E.04427
G1 X31.23 Y158.767 E.05613
G1 X29.786 Y157.476 E.06074
G1 X28.733 Y156.27 E.05021
G1 X27.726 Y154.79 E.05612
G1 X26.987 Y153.37 E.0502
G1 X26.469 Y152.056 E.04427
G1 X26.166 Y151.024 E.03372
G1 X25.832 Y149.266 E.05613
G1 X25.724 Y147.676 E.04996
G1 X25.733 Y77.061 E2.21408
G1 X25.832 Y75.734 E.04172
G1 X26.007 Y74.673 E.03372
G1 X26.411 Y73.124 E.05019
G1 X27.064 Y71.457 E.05613
G1 X27.726 Y70.21 E.04427
G1 X28.733 Y68.73 E.05612
G1 X30.024 Y67.286 E.06074
G1 X31.23 Y66.233 E.0502
G1 X32.71 Y65.226 E.05613
G1 X33.601 Y64.739 E.03184
G1 E-4.2 F3600
;WIPE_START
G1 F7200
G1 X34.949 Y64.147 E-.69899
G1 X36.476 Y63.666 E-.76048
G1 X36.994 Y63.567 E-.25053
;WIPE_END
G1 E-.09 F3600
G1 X35.31 Y68.254 F9000
G1 E6 F2400
G1 F1200
G1 X36.419 Y67.771 E.03793
G1 X37.558 Y67.424 E.03733
G1 X38.73 Y67.211 E.03733
G1 X39.921 Y67.132 E.03744
G1 X190.081 Y67.133 E4.70814
G1 X191.115 Y67.193 E.03249
G1 X192.125 Y67.352 E.03206
G1 X193.604 Y67.778 E.04825
G1 X194.586 Y68.202 E.03352
G1 X195.524 Y68.727 E.03372
G1 X196.389 Y69.335 E.03314
G1 X197.197 Y70.036 E.03355
G1 X198.232 Y71.196 E.04875
G1 X198.891 Y72.168 E.03683
G1 X199.427 Y73.185 E.03603
G1 X199.816 Y74.163 E.03302
G1 X200.103 Y75.174 E.03295
G1 X200.284 Y76.192 E.03241
G1 X200.362 Y77.232 E.0327
G1 X200.363 Y147.718 E2.21006
G1 X200.302 Y148.659 E.02957
G1 X200.136 Y149.68 E.03244
G1 X199.832 Y150.789 E.03605
G1 X199.354 Y151.97 E.03994
G1 X198.744 Y153.069 E.03942
G1 X198.024 Y154.065 E.03852
G1 X197.197 Y154.963 E.03831
G1 X196.472 Y155.599 E.03022
G1 X195.679 Y156.174 E.03071
G1 X194.69 Y156.746 E.03581
G1 X193.583 Y157.228 E.03788
G1 X192.442 Y157.576 E.03739
G1 X191.269 Y157.789 E.03737
G1 X190.079 Y157.868 E.03742
G1 X39.921 Y157.868 E4.70809
G1 X38.702 Y157.786 E.0383
G1 X37.506 Y157.563 E.03814
G1 X36.566 Y157.282 E.03076
G1 X35.671 Y156.921 E.03027
G1 X34.527 Y156.305 E.04075
G1 X33.477 Y155.558 E.04039
G1 X32.522 Y154.681 E.04067
G1 X31.775 Y153.811 E.03594
G1 X31.216 Y153.007 E.0307
G1 X30.743 Y152.169 E.03017
G1 X30.269 Y151.077 E.03733
G1 X29.924 Y149.939 E.0373
G1 X29.711 Y148.769 E.03727
G1 X29.632 Y147.579 E.03742
G1 X29.638 Y77.244 E2.20529
G1 X29.702 Y76.305 E.02952
G1 X29.852 Y75.377 E.02946
G1 X30.147 Y74.275 E.03578
G1 X30.626 Y73.072 E.04059
G1 X31.244 Y71.95 E.04017
G1 X31.962 Y70.952 E.03854
G1 X32.804 Y70.037 E.039
G1 X33.528 Y69.401 E.03022
G1 X34.321 Y68.826 E.03071
G1 X35.258 Y68.284 E.03395
G1 X35.447 Y68.611 F9000
G1 F1200
G1 X36.54 Y68.128 E.03746
G1 X37.637 Y67.793 E.03598
G1 X38.766 Y67.586 E.03597
G1 X39.928 Y67.509 E.03651
G1 X190.075 Y67.51 E4.70778
G1 X191.066 Y67.567 E.03111
G1 X192.055 Y67.723 E.03139
G1 X193.466 Y68.129 E.04604
G1 X194.41 Y68.536 E.03225
G1 X195.315 Y69.041 E.03249
G1 X196.164 Y69.638 E.03252
G1 X196.94 Y70.313 E.03226
G1 X197.927 Y71.419 E.04647
G1 X198.563 Y72.354 E.03545
G1 X199.08 Y73.334 E.03476
G1 X199.456 Y74.276 E.0318
G1 X199.734 Y75.25 E.03175
G1 X199.912 Y76.248 E.03179
G1 X199.985 Y77.252 E.03157
G1 X199.986 Y147.712 E2.20922
G1 X199.927 Y148.626 E.0287
G1 X199.769 Y149.591 E.03066
G1 X199.478 Y150.658 E.0347
G1 X199.019 Y151.798 E.03851
G1 X198.432 Y152.858 E.038
G1 X197.739 Y153.818 E.03712
G1 X196.94 Y154.687 E.037
G1 X196.23 Y155.31 E.02962
G1 X195.466 Y155.863 E.02957
G1 X194.511 Y156.414 E.03457
G1 X193.462 Y156.871 E.03588
G1 X192.363 Y157.207 E.03604
G1 X191.234 Y157.414 E.03601
G1 X190.072 Y157.491 E.03649
G1 X39.927 Y157.491 E4.7077
G1 X38.76 Y157.413 E.03668
G1 X37.604 Y157.199 E.03685
G1 X36.699 Y156.929 E.02961
G1 X35.822 Y156.575 E.02966
G1 X34.736 Y155.991 E.03868
G1 X33.723 Y155.272 E.03892
G1 X32.8 Y154.426 E.03925
G1 X32.079 Y153.588 E.03468
G1 X31.54 Y152.814 E.02956
G1 X31.077 Y151.993 E.02957
G1 X30.62 Y150.937 E.03605
G1 X30.288 Y149.84 E.03595
G1 X30.086 Y148.734 E.03526
G1 X30.009 Y147.572 E.03649
G1 X30.015 Y77.263 E2.2045
G1 X30.075 Y76.356 E.02849
G1 X30.223 Y75.447 E.02888
G1 X30.508 Y74.383 E.03454
G1 X30.962 Y73.243 E.03847
G1 X31.557 Y72.16 E.03874
G1 X32.248 Y71.199 E.03713
G1 X33.06 Y70.313 E.03768
G1 X33.77 Y69.69 E.02961
G1 X34.534 Y69.137 E.02957
G1 X35.395 Y68.641 E.03117
G1 X35.583 Y68.967 F9000
G1 F1200
G1 X36.68 Y68.478 E.03765
G1 X37.736 Y68.157 E.03462
G1 X38.822 Y67.959 E.03461
G1 X39.934 Y67.887 E.03492
G1 X190.07 Y67.887 E4.70741
G1 X191.035 Y67.943 E.0303
G1 X191.984 Y68.093 E.03015
G1 X193.328 Y68.481 E.04384
G1 X194.236 Y68.87 E.03097
G1 X195.107 Y69.355 E.03127
G1 X195.924 Y69.929 E.03129
G1 X196.684 Y70.59 E.03158
G1 X197.622 Y71.641 E.0442
G1 X198.234 Y72.54 E.03408
G1 X198.734 Y73.483 E.03348
G1 X199.096 Y74.389 E.03058
G1 X199.368 Y75.344 E.03113
G1 X199.539 Y76.304 E.03058
G1 X199.608 Y77.273 E.03044
G1 X199.609 Y147.706 E2.20839
G1 X199.551 Y148.592 E.02784
G1 X199.403 Y149.501 E.0289
G1 X199.124 Y150.528 E.03336
G1 X198.683 Y151.626 E.03708
G1 X198.119 Y152.647 E.03657
G1 X197.453 Y153.571 E.03572
G1 X196.684 Y154.41 E.0357
G1 X196.002 Y155.009 E.02846
G1 X195.253 Y155.551 E.02898
G1 X194.332 Y156.082 E.03331
G1 X193.322 Y156.521 E.03454
G1 X192.264 Y156.843 E.03468
G1 X191.177 Y157.041 E.03465
G1 X190.066 Y157.113 E.03489
G1 X39.933 Y157.113 E4.70731
G1 X38.796 Y157.037 E.03574
G1 X37.702 Y156.835 E.03487
G1 X36.816 Y156.57 E.02901
G1 X35.973 Y156.23 E.0285
G1 X34.925 Y155.664 E.03734
G1 X33.951 Y154.972 E.03746
G1 X33.078 Y154.172 E.03713
G1 X32.383 Y153.364 E.03341
G1 X31.855 Y152.606 E.02897
G1 X31.41 Y151.816 E.02842
G1 X30.97 Y150.798 E.03478
G1 X30.652 Y149.742 E.0346
G1 X30.459 Y148.677 E.03391
G1 X30.387 Y147.566 E.03491
G1 X30.391 Y77.282 E2.20372
G1 X30.451 Y76.39 E.02801
G1 X30.593 Y75.517 E.02774
G1 X30.869 Y74.492 E.03329
G1 X31.308 Y73.394 E.03707
G1 X31.87 Y72.371 E.0366
G1 X32.533 Y71.445 E.03572
G1 X33.317 Y70.59 E.03637
G1 X33.998 Y69.991 E.02845
G1 X34.747 Y69.449 E.02898
G1 X35.531 Y68.997 E.02837
G1 X35.719 Y69.324 F9000
G1 F1200
G1 X35.847 Y69.25 E.00463
G1 X36.82 Y68.829 E.03324
G1 X37.835 Y68.521 E.03327
G1 X38.879 Y68.332 E.03326
G1 X39.94 Y68.264 E.03334
G1 X190.064 Y68.264 E4.70705
G1 X191.003 Y68.319 E.02949
G1 X191.914 Y68.464 E.0289
G1 X193.19 Y68.832 E.04165
G1 X194.078 Y69.213 E.03029
G1 X194.914 Y69.68 E.03004
G1 X195.699 Y70.232 E.03007
G1 X196.427 Y70.866 E.03029
G1 X197.318 Y71.864 E.04195
G1 X197.906 Y72.726 E.03271
G1 X198.388 Y73.633 E.03221
G1 X198.736 Y74.502 E.02936
G1 X198.999 Y75.42 E.02993
G1 X199.163 Y76.341 E.02935
G1 X199.232 Y77.293 E.02992
G1 X199.232 Y147.7 E2.20755
G1 X199.175 Y148.558 E.02697
G1 X199.036 Y149.412 E.02715
G1 X198.77 Y150.399 E.03203
G1 X198.347 Y151.454 E.03566
G1 X197.806 Y152.436 E.03515
G1 X197.168 Y153.325 E.03432
G1 X196.427 Y154.134 E.03439
G1 X195.76 Y154.72 E.02785
G1 X195.04 Y155.24 E.02782
G1 X194.154 Y155.749 E.03206
G1 X193.182 Y156.171 E.0332
G1 X192.165 Y156.479 E.03332
G1 X191.12 Y156.668 E.0333
G1 X190.06 Y156.736 E.03331
G1 X39.939 Y156.736 E4.70693
G1 X38.853 Y156.665 E.03413
G1 X37.8 Y156.47 E.03358
G1 X36.949 Y156.217 E.02785
G1 X36.124 Y155.884 E.02788
G1 X35.115 Y155.338 E.03599
G1 X34.197 Y154.685 E.0353
G1 X33.356 Y153.916 E.03573
G1 X32.686 Y153.141 E.03215
G1 X32.179 Y152.413 E.02781
G1 X31.743 Y151.64 E.02782
G1 X31.321 Y150.659 E.03349
G1 X31.016 Y149.644 E.03324
G1 X30.832 Y148.621 E.03257
G1 X30.764 Y147.56 E.03333
G1 X30.768 Y77.3 E2.20295
G1 X30.825 Y76.442 E.02697
G1 X30.964 Y75.588 E.02715
G1 X31.23 Y74.601 E.03203
G1 X31.654 Y73.545 E.03567
G1 X32.194 Y72.563 E.03516
G1 X32.833 Y71.674 E.03431
G1 X33.573 Y70.866 E.03437
G1 X34.24 Y70.28 E.02785
G1 X34.96 Y69.76 E.02782
G1 X35.667 Y69.354 E.02557
G1 X35.854 Y69.681 F9000
G1 F1200
G1 X36.025 Y69.583 E.00617
G1 X36.959 Y69.179 E.0319
G1 X37.933 Y68.885 E.03191
G1 X38.935 Y68.705 E.0319
G1 X39.946 Y68.641 E.03176
G1 X190.059 Y68.641 E4.7067
G1 X190.953 Y68.692 E.02809
G1 X191.843 Y68.834 E.02824
G1 X193.052 Y69.183 E.03947
G1 X193.903 Y69.547 E.02901
G1 X194.705 Y69.994 E.0288
G1 X195.473 Y70.534 E.02944
G1 X196.17 Y71.142 E.029
G1 X197.014 Y72.087 E.03971
G1 X197.579 Y72.912 E.03135
G1 X198.042 Y73.783 E.03092
G1 X198.382 Y74.633 E.02873
G1 X198.633 Y75.514 E.0287
G1 X198.79 Y76.397 E.02813
G1 X198.855 Y77.313 E.02878
G1 X198.855 Y147.681 E2.20634
G1 X198.8 Y148.524 E.02649
G1 X198.666 Y149.342 E.02599
G1 X198.409 Y150.289 E.03078
G1 X198.011 Y151.283 E.03356
G1 X197.493 Y152.226 E.03373
G1 X196.882 Y153.079 E.03291
G1 X196.17 Y153.858 E.03308
G1 X195.531 Y154.42 E.02667
G1 X194.828 Y154.928 E.02722
G1 X193.976 Y155.417 E.03079
G1 X193.043 Y155.82 E.03186
G1 X192.067 Y156.114 E.03197
G1 X191.085 Y156.292 E.03128
G1 X190.054 Y156.359 E.0324
G1 X39.945 Y156.359 E4.70655
G1 X38.91 Y156.292 E.03253
G1 X37.898 Y156.106 E.03228
G1 X37.065 Y155.859 E.02724
G1 X36.276 Y155.538 E.0267
G1 X35.323 Y155.024 E.03394
G1 X34.443 Y154.399 E.03385
G1 X33.634 Y153.661 E.03432
G1 X32.99 Y152.917 E.03086
G1 X32.494 Y152.205 E.02721
G1 X32.077 Y151.464 E.02665
G1 X31.679 Y150.54 E.03155
G1 X31.385 Y149.566 E.0319
G1 X31.208 Y148.586 E.03122
G1 X31.141 Y147.554 E.03242
G1 X31.145 Y77.319 E2.20217
G1 X31.2 Y76.476 E.02649
G1 X31.334 Y75.658 E.02599
G1 X31.591 Y74.711 E.03078
G1 X31.99 Y73.717 E.03358
G1 X32.508 Y72.773 E.03374
G1 X33.119 Y71.92 E.0329
G1 X33.83 Y71.142 E.03306
G1 X34.469 Y70.58 E.02667
G1 X35.172 Y70.072 E.02722
G1 X35.802 Y69.711 E.02276
G1 X35.989 Y70.038 F9000
G1 F1200
G1 X36.203 Y69.916 E.00771
G1 X37.098 Y69.53 E.03057
G1 X38.011 Y69.255 E.0299
G1 X38.97 Y69.081 E.03055
G1 X39.952 Y69.018 E.03085
G1 X190.054 Y69.018 E4.70634
G1 X190.922 Y69.068 E.02727
G1 X191.772 Y69.205 E.02698
G1 X192.915 Y69.534 E.03732
G1 X193.728 Y69.881 E.02772
G1 X194.513 Y70.319 E.02817
G1 X195.248 Y70.837 E.02819
G1 X195.913 Y71.418 E.02771
G1 X196.71 Y72.311 E.0375
G1 X197.251 Y73.099 E.02998
G1 X197.696 Y73.933 E.02963
G1 X198.023 Y74.747 E.0275
G1 X198.264 Y75.589 E.02748
G1 X198.417 Y76.453 E.0275
G1 X198.479 Y77.332 E.02764
G1 X198.479 Y147.663 E2.20515
G1 X198.426 Y148.472 E.02543
G1 X198.295 Y149.271 E.02539
G1 X198.048 Y150.179 E.02951
G1 X197.665 Y151.131 E.03218
G1 X197.168 Y152.034 E.0323
G1 X196.582 Y152.85 E.0315
G1 X195.913 Y153.581 E.03108
G1 X195.289 Y154.131 E.02606
G1 X194.615 Y154.616 E.02604
G1 X193.798 Y155.084 E.02953
G1 X192.904 Y155.469 E.03052
G1 X191.969 Y155.75 E.03061
G1 X191.029 Y155.919 E.02994
G1 X190.048 Y155.982 E.03082
G1 X39.951 Y155.982 E4.70617
G1 X38.967 Y155.919 E.03093
G1 X37.995 Y155.742 E.03099
G1 X37.198 Y155.506 E.02605
G1 X36.427 Y155.193 E.02608
G1 X35.513 Y154.698 E.0326
G1 X34.671 Y154.099 E.03242
G1 X33.912 Y153.406 E.03222
G1 X33.293 Y152.693 E.02959
G1 X32.818 Y152.012 E.02604
G1 X32.411 Y151.288 E.02604
G1 X32.03 Y150.401 E.03027
G1 X31.75 Y149.468 E.03055
G1 X31.581 Y148.53 E.02988
G1 X31.518 Y147.548 E.03084
G1 X31.521 Y77.337 E2.20141
G1 X31.574 Y76.528 E.02543
G1 X31.705 Y75.729 E.02539
G1 X31.952 Y74.821 E.02952
G1 X32.335 Y73.868 E.03219
G1 X32.832 Y72.965 E.03231
G1 X33.419 Y72.15 E.0315
G1 X34.087 Y71.418 E.03106
G1 X34.711 Y70.869 E.02606
G1 X35.385 Y70.384 E.02604
G1 X35.937 Y70.067 E.01996
G1 X36.124 Y70.395 F9000
G1 F1200
G1 X36.38 Y70.248 E.00925
G1 X37.237 Y69.881 E.02923
G1 X38.109 Y69.619 E.02856
G1 X39.026 Y69.454 E.0292
G1 X39.958 Y69.395 E.02928
G1 X190.048 Y69.395 E4.70599
G1 X190.872 Y69.442 E.02586
G1 X191.7 Y69.575 E.02632
G1 X192.778 Y69.886 E.03515
G1 X193.571 Y70.224 E.02704
G1 X194.32 Y70.643 E.02691
G1 X195.022 Y71.139 E.02694
G1 X195.656 Y71.694 E.02642
G1 X196.406 Y72.534 E.03531
G1 X196.923 Y73.286 E.02862
G1 X197.35 Y74.083 E.02833
G1 X197.669 Y74.878 E.02686
G1 X197.899 Y75.683 E.02625
G1 X198.044 Y76.508 E.02627
G1 X198.102 Y77.352 E.02651
G1 X198.102 Y147.645 E2.20398
G1 X198.052 Y148.42 E.02437
G1 X197.925 Y149.2 E.02478
G1 X197.687 Y150.069 E.02824
G1 X197.32 Y150.98 E.03079
G1 X196.855 Y151.823 E.03019
G1 X196.296 Y152.604 E.03011
G1 X195.656 Y153.306 E.02978
G1 X195.061 Y153.83 E.02487
G1 X194.403 Y154.305 E.02543
G1 X193.62 Y154.751 E.02825
G1 X192.765 Y155.118 E.02918
G1 X191.871 Y155.386 E.02925
G1 X190.974 Y155.546 E.02859
G1 X190.042 Y155.605 E.02926
G1 X39.958 Y155.605 E4.7058
G1 X39.002 Y155.543 E.03002
G1 X38.092 Y155.377 E.02901
G1 X37.314 Y155.147 E.02544
G1 X36.579 Y154.848 E.02487
G1 X35.703 Y154.372 E.03126
G1 X34.916 Y153.812 E.03029
G1 X34.189 Y153.15 E.03084
G1 X33.597 Y152.469 E.02831
G1 X33.132 Y151.804 E.02542
G1 X32.745 Y151.113 E.02485
G1 X32.381 Y150.263 E.02899
G1 X32.114 Y149.37 E.0292
G1 X31.954 Y148.474 E.02854
G1 X31.895 Y147.542 E.02928
G1 X31.898 Y77.355 E2.20066
G1 X31.948 Y76.58 E.02437
G1 X32.075 Y75.8 E.02478
G1 X32.313 Y74.931 E.02824
G1 X32.681 Y74.02 E.03081
G1 X33.145 Y73.176 E.03021
G1 X33.705 Y72.395 E.03011
G1 X34.344 Y71.694 E.02976
G1 X34.939 Y71.17 E.02486
G1 X35.597 Y70.695 E.02543
G1 X36.072 Y70.424 E.01714
G1 X36.258 Y70.752 F9000
G1 F1200
G1 X36.557 Y70.582 E.01079
G1 X37.375 Y70.232 E.02789
G1 X38.207 Y69.983 E.02722
G1 X39.061 Y69.83 E.0272
G1 X39.964 Y69.772 E.02837
G1 X190.043 Y69.772 E4.70563
G1 X190.84 Y69.818 E.02504
G1 X191.629 Y69.946 E.02505
G1 X192.641 Y70.237 E.03302
G1 X193.396 Y70.559 E.02575
G1 X194.112 Y70.957 E.02566
G1 X194.781 Y71.429 E.02568
G1 X195.398 Y71.97 E.02575
G1 X196.102 Y72.758 E.03313
G1 X196.596 Y73.474 E.02727
G1 X197.004 Y74.234 E.02704
G1 X197.309 Y74.992 E.02561
G1 X197.529 Y75.758 E.02501
G1 X197.671 Y76.564 E.02564
G1 X197.725 Y77.371 E.02536
G1 X197.725 Y147.627 E2.20282
G1 X197.677 Y148.387 E.02389
G1 X197.554 Y149.129 E.02358
G1 X197.326 Y149.958 E.02697
G1 X196.974 Y150.828 E.02941
G1 X196.531 Y151.631 E.02879
G1 X196.009 Y152.358 E.02805
G1 X195.398 Y153.03 E.02847
G1 X194.819 Y153.541 E.02424
G1 X194.191 Y153.993 E.02423
G1 X193.443 Y154.418 E.02698
G1 X192.627 Y154.767 E.02784
G1 X191.774 Y155.021 E.0279
G1 X190.918 Y155.173 E.02725
G1 X190.036 Y155.228 E.02771
G1 X39.964 Y155.228 E4.70543
