; generated by PrusaSlicer 2.5.0+MacOS-arm64 on 2023-01-19 at 20:53:36 UTC

; 

; external perimeters extrusion width = 0.45mm
; perimeters extrusion width = 0.45mm
; infill extrusion width = 0.45mm
; solid infill extrusion width = 0.45mm
; top infill extrusion width = 0.40mm
; first layer extrusion width = 0.42mm

M107
;TYPE:Custom
G90 ; use absolute coordinates
M83 ; extruder relative mode
M140 S60 ; set final bed temp
M104 S150 ; set temporary nozzle temp to prevent oozing during homing
G4 S10 ; allow partial nozzle warmup
G28 ; home all axis
G1 Z50 F240
G1 X2 Y10 F3000
M104 S210 ; set final nozzle temp
M190 S60 ; wait for bed temp to stabilize
M109 S210 ; wait for nozzle temp to stabilize
G1 Z0.28 F240
G92 E0
G1 Y140 E10 F1500 ; prime the nozzle
G1 X2.3 F5000
G92 E0
G1 Y10 E10 F1200 ; prime the nozzle
G92 E0
G21 ; set units to millimeters
G90 ; use absolute coordinates
M83 ; use relative distances for extrusion
; Filament gcode
M107
;LAYER_CHANGE
;Z:0.2
;HEIGHT:0.2
;BEFORE_LAYER_CHANGE
G92 E0
;0.2


G1 E-6 F3600
G1 Z.2 F9000
;AFTER_LAYER_CHANGE
;0.2
G1 X99.587 Y96.352
G1 E6 F2400
M204 S500
;TYPE:Skirt/Brim
;WIDTH:0.42
G1 F1200
G1 X103.102 Y92.837 E.15585
G1 X104.5 Y91.996 E.05115
G1 X105.49 Y91.848 E.03138
G1 X124.51 Y91.848 E.59638
G1 X126.093 Y92.242 E.05115
G1 X126.898 Y92.837 E.03138
G1 X130.413 Y96.352 E.15585
G1 X131.254 Y97.75 E.05115
G1 X131.402 Y98.74 E.03138
G1 X131.402 Y126.26 E.86289
G1 X131.008 Y127.843 E.05115
G1 X130.413 Y128.648 E.03138
G1 X126.898 Y132.163 E.15585
G1 X125.5 Y133.004 E.05115
G1 X124.51 Y133.152 E.03138
G1 X105.49 Y133.152 E.59638
G1 X103.907 Y132.758 E.05115
G1 X103.102 Y132.163 E.03138
G1 X99.587 Y128.648 E.15585
G1 X98.746 Y127.25 E.05115
G1 X98.598 Y126.26 E.03138
G1 X98.598 Y98.74 E.86289
G1 X98.992 Y97.157 E.05115
G1 X99.551 Y96.4 E.0295
G1 E-4.2 F3600
;WIPE_START
G1 F7200
G1 X102.092 Y93.85 E-1.71
;WIPE_END
G1 E-.09 F3600
G1 X103.215 Y98.456 F9000
G1 E6 F2400
G1 F1200
G1 X103.889 Y97.575 E.03475
G1 X105.044 Y96.567 E.0481
G1 X106.02 Y96.088 E.03408
G1 X107.284 Y95.774 E.04082
G1 X122.62 Y95.768 E.48087
G1 X123.72 Y95.99 E.03518
G1 X124.717 Y96.419 E.03403
G1 X126.115 Y97.572 E.0568
G1 X127.043 Y98.971 E.05264
G1 X127.48 Y100.569 E.05196
G1 X127.493 Y124.383 E.74667
G1 X126.785 Y126.544 E.0713
G1 X126.111 Y127.425 E.03475
G1 X124.956 Y128.433 E.0481
G1 X123.978 Y128.913 E.03415
G1 X122.58 Y129.243 E.04502
G1 X107.367 Y129.243 E.477
G1 X105.206 Y128.535 E.0713
G1 X104.325 Y127.861 E.03475
G1 X103.317 Y126.706 E.0481
G1 X102.837 Y125.728 E.03415
G1 X102.507 Y124.33 E.04502
G1 X102.507 Y100.617 E.74352
G1 X103.196 Y98.513 E.06942
G1 X103.554 Y98.631 F9000
G1 F1200
G1 X104.151 Y97.847 E.03092
G1 X105.234 Y96.893 E.04525
G1 X106.131 Y96.449 E.03138
G1 X107.352 Y96.146 E.03944
G1 X122.566 Y96.142 E.477
G1 X123.59 Y96.345 E.03274
G1 X124.543 Y96.755 E.03253
G1 X125.851 Y97.843 E.05337
G1 X126.711 Y99.152 E.04908
G1 X127.109 Y100.642 E.04838
G1 X127.116 Y124.353 E.74342
G1 X126.438 Y126.394 E.06745
G1 X125.849 Y127.153 E.03012
G1 X124.766 Y128.107 E.04525
G1 X123.868 Y128.551 E.03139
G1 X122.558 Y128.866 E.04227
G1 X107.397 Y128.866 E.47534
G1 X105.356 Y128.188 E.06745
G1 X104.597 Y127.599 E.03012
G1 X103.643 Y126.516 E.04525
G1 X103.199 Y125.618 E.03139
G1 X102.884 Y124.308 E.04227
G1 X102.884 Y100.647 E.74185
G1 X103.535 Y98.688 E.06473
G1 X103.881 Y98.81 F9000
G1 F1200
G1 X104.415 Y98.116 E.02747
G1 X105.426 Y97.219 E.04239
G1 X106.243 Y96.81 E.02864
G1 X107.421 Y96.517 E.03806
G1 X122.512 Y96.515 E.47317
G1 X123.46 Y96.699 E.03028
G1 X124.368 Y97.09 E.031
G1 X125.587 Y98.113 E.0499
G1 X126.378 Y99.331 E.04551
G1 X126.738 Y100.714 E.04481
G1 X126.738 Y124.322 E.74024
G1 X126.119 Y126.19 E.06168
G1 X125.585 Y126.884 E.02747
G1 X124.574 Y127.781 E.04239
G1 X123.758 Y128.19 E.02862
G1 X122.535 Y128.488 E.03947
G1 X107.428 Y128.488 E.47367
G1 X105.56 Y127.869 E.06168
G1 X104.866 Y127.335 E.02747
G1 X103.969 Y126.324 E.04239
G1 X103.56 Y125.508 E.02862
G1 X103.262 Y124.285 E.03947
G1 X103.262 Y100.678 E.74018
G1 X103.862 Y98.867 E.0598
G1 X104.219 Y98.988 F9000
G1 F1200
G1 X104.679 Y98.386 E.02374
G1 X105.619 Y97.543 E.0396
G1 X106.355 Y97.17 E.02586
G1 X107.489 Y96.889 E.03665
G1 X122.493 Y96.892 E.47043
G1 X123.366 Y97.065 E.0279
G1 X124.191 Y97.424 E.02823
G1 X125.322 Y98.383 E.04647
G1 X126.021 Y99.457 E.04018
G1 X126.361 Y100.738 E.04157
G1 X126.361 Y124.291 E.73848
G1 X125.773 Y126.038 E.05778
G1 X125.321 Y126.614 E.02295
G1 X124.381 Y127.457 E.0396
G1 X123.645 Y127.83 E.02585
G1 X122.511 Y128.111 E.03664
G1 X107.459 Y128.111 E.47196
G1 X105.712 Y127.523 E.05778
G1 X105.136 Y127.071 E.02295
G1 X104.293 Y126.131 E.0396
G1 X103.92 Y125.395 E.02585
G1 X103.639 Y124.261 E.03664
G1 X103.639 Y100.709 E.73847
G1 X104.199 Y99.044 E.05507
G1 X104.544 Y99.168 F9000
G1 F1200
G1 X104.945 Y98.654 E.02043
G1 X105.815 Y97.867 E.03679
G1 X106.469 Y97.53 E.02308
G1 X107.513 Y97.266 E.03377
G1 X122.474 Y97.269 E.46908
G1 X123.271 Y97.43 E.02549
G1 X124.013 Y97.758 E.02545
G1 X125.055 Y98.651 E.04302
G1 X125.688 Y99.635 E.03669
G1 X125.984 Y100.763 E.03655
G1 X125.984 Y124.261 E.73676
G1 X125.456 Y125.832 E.05197
G1 X125.055 Y126.346 E.02043
G1 X124.185 Y127.133 E.03679
G1 X123.531 Y127.47 E.02308
G1 X122.487 Y127.734 E.03376
G1 X107.489 Y127.734 E.47025
G1 X105.918 Y127.206 E.05197
G1 X105.404 Y126.805 E.02043
G1 X104.617 Y125.935 E.03679
G1 X104.28 Y125.281 E.02308
G1 X104.016 Y124.237 E.03376
G1 X104.016 Y100.739 E.73676
G1 X104.525 Y99.225 E.05009
G1 X104.862 Y99.374 F9000
G1 F1200
G1 X105.212 Y98.921 E.01793
G1 X106.012 Y98.189 E.03399
G1 X106.586 Y97.89 E.0203
G1 X107.538 Y97.643 E.03083
G1 X122.454 Y97.646 E.46769
G1 X123.173 Y97.795 E.02303
G1 X123.833 Y98.09 E.02266
G1 X124.787 Y98.917 E.0396
G1 X125.331 Y99.762 E.03149
G1 X125.607 Y100.788 E.03331
G1 X125.607 Y124.23 E.73501
G1 X125.138 Y125.626 E.04619
G1 X124.788 Y126.079 E.01793
G1 X123.988 Y126.811 E.03399
G1 X123.414 Y127.11 E.0203
G1 X122.463 Y127.357 E.03082
G1 X107.52 Y127.357 E.46852
G1 X106.124 Y126.888 E.04619
G1 X105.671 Y126.538 E.01793
G1 X104.939 Y125.738 E.03399
G1 X104.64 Y125.164 E.0203
G1 X104.393 Y124.213 E.03082
G1 X104.393 Y100.77 E.73503
G1 X104.843 Y99.431 E.04431
G1 X105.181 Y99.578 F9000
G1 F1200
G1 X105.48 Y99.186 E.01546
G1 X106.211 Y98.51 E.03121
G1 X106.705 Y98.248 E.01752
G1 X107.563 Y98.02 E.02784
G1 X122.435 Y98.023 E.46631
G1 X123.038 Y98.148 E.01932
G1 X123.653 Y98.422 E.0211
G1 X124.517 Y99.182 E.03609
G1 X124.997 Y99.939 E.02809
G1 X125.23 Y100.812 E.02835
G1 X125.23 Y124.199 E.73329
G1 X124.819 Y125.422 E.04045
G1 X124.52 Y125.814 E.01546
G1 X123.789 Y126.49 E.03121
G1 X123.296 Y126.752 E.01752
G1 X122.438 Y126.98 E.02783
G1 X107.551 Y126.98 E.46677
G1 X106.328 Y126.569 E.04045
G1 X105.936 Y126.27 E.01546
G1 X105.26 Y125.539 E.03121
G1 X104.998 Y125.046 E.01752
G1 X104.77 Y124.188 E.02783
G1 X104.77 Y100.801 E.73329
G1 X105.162 Y99.635 E.03857
G1 X105.5 Y99.78 F9000
G1 F1200
G1 X105.75 Y99.45 E.01301
G1 X106.413 Y98.829 E.02845
G1 X106.826 Y98.605 E.01474
G1 X107.588 Y98.397 E.02478
G1 X122.414 Y98.401 E.46486
G1 X122.939 Y98.512 E.01681
G1 X123.47 Y98.753 E.01829
G1 X124.247 Y99.446 E.03263
G1 X124.641 Y100.066 E.02306
G1 X124.853 Y100.838 E.0251
G1 X124.853 Y124.169 E.73151
G1 X124.5 Y125.22 E.03476
G1 X124.25 Y125.55 E.01301
G1 X123.587 Y126.171 E.02845
G1 X123.174 Y126.395 E.01474
G1 X122.412 Y126.603 E.02477
G1 X107.581 Y126.603 E.465
G1 X106.53 Y126.25 E.03476
G1 X106.2 Y126 E.01301
G1 X105.579 Y125.337 E.02845
G1 X105.355 Y124.924 E.01474
G1 X105.147 Y124.162 E.02477
G1 X105.147 Y100.831 E.73151
G1 X105.481 Y99.837 E.03288
G1 X105.82 Y99.982 F9000
G1 F1200
G1 X106.022 Y99.711 E.01059
G1 X106.618 Y99.147 E.02573
G1 X106.951 Y98.962 E.01196
G1 X107.615 Y98.774 E.02163
G1 X122.393 Y98.778 E.46335
G1 X122.836 Y98.875 E.01423
G1 X123.284 Y99.083 E.01548
G1 X123.975 Y99.708 E.0292
G1 X124.287 Y100.196 E.01818
G1 X124.476 Y100.865 E.02179
G1 X124.476 Y124.138 E.72971
G1 X124.18 Y125.018 E.02912
G1 X123.978 Y125.289 E.01059
G1 X123.382 Y125.853 E.02573
G1 X123.049 Y126.038 E.01196
G1 X122.385 Y126.226 E.02162
G1 X107.612 Y126.226 E.4632
G1 X106.732 Y125.93 E.02912
G1 X106.461 Y125.728 E.01059
G1 X105.897 Y125.132 E.02573
G1 X105.712 Y124.799 E.01196
G1 X105.524 Y124.135 E.02162
G1 X105.524 Y100.862 E.72971
G1 X105.801 Y100.039 E.02724
G1 X106.141 Y100.181 F9000
G1 F1200
G1 X106.296 Y99.971 E.00819
G1 X106.826 Y99.462 E.02305
G1 X107.081 Y99.316 E.00919
G1 X107.643 Y99.151 E.01838
G1 X122.371 Y99.155 E.46177
G1 X122.73 Y99.238 E.01157
G1 X123.096 Y99.41 E.01268
G1 X123.701 Y99.968 E.0258
G1 X123.933 Y100.33 E.01347
G1 X124.099 Y100.893 E.01841
G1 X124.099 Y124.107 E.72786
G1 X123.859 Y124.819 E.02355
G1 X123.704 Y125.029 E.00819
G1 X123.174 Y125.538 E.02305
G1 X122.919 Y125.684 E.00919
G1 X122.357 Y125.849 E.01838
G1 X107.643 Y125.849 E.46135
G1 X106.931 Y125.609 E.02355
G1 X106.721 Y125.454 E.00819
G1 X106.212 Y124.924 E.02305
G1 X106.066 Y124.669 E.00919
G1 X105.901 Y124.107 E.01838
G1 X105.901 Y100.893 E.72786
G1 X106.122 Y100.238 E.02166
G1 X106.463 Y100.379 F9000
G1 F1200
G1 X106.572 Y100.229 E.0058
G1 X107.039 Y99.774 E.02044
G1 X107.216 Y99.669 E.00643
G1 X107.673 Y99.528 E.015
G1 X122.349 Y99.532 E.46017
G1 X122.587 Y99.587 E.00767
G1 X122.907 Y99.738 E.01109
G1 X123.426 Y100.226 E.02233
G1 X123.581 Y100.467 E.00898
G1 X123.722 Y100.923 E.01495
G1 X123.722 Y124.076 E.72596
G1 X123.537 Y124.621 E.01806
G1 X123.428 Y124.771 E.0058
G1 X122.961 Y125.226 E.02044
G1 X122.784 Y125.331 E.00643
G1 X122.327 Y125.472 E.015
G1 X107.674 Y125.472 E.45945
G1 X107.129 Y125.287 E.01806
G1 X106.979 Y125.178 E.0058
G1 X106.524 Y124.711 E.02044
G1 X106.419 Y124.534 E.00643
G1 X106.278 Y124.077 E.015
G1 X106.278 Y100.924 E.72596
G1 X106.444 Y100.435 E.01618
G1 X106.787 Y100.573 F9000
G1 F1200
G1 X106.85 Y100.484 E.00343
G1 X107.257 Y100.081 E.01795
G1 X107.358 Y100.019 E.00371
G1 X107.704 Y99.905 E.01144
G1 X122.327 Y99.909 E.45848
G1 X122.444 Y99.936 E.00377
G1 X122.717 Y100.065 E.00947
G1 X123.148 Y100.482 E.0188
G1 X123.232 Y100.61 E.00479
G1 X123.345 Y100.954 E.01136
G1 X123.345 Y124.044 E.72397
G1 X123.213 Y124.427 E.0127
G1 X123.15 Y124.516 E.00343
G1 X122.743 Y124.919 E.01795
G1 X122.642 Y124.981 E.00371
G1 X122.296 Y125.095 E.01144
G1 X107.706 Y125.095 E.45746
G1 X107.323 Y124.963 E.0127
G1 X107.234 Y124.9 E.00343
G1 X106.831 Y124.493 E.01795
G1 X106.769 Y124.392 E.00371
G1 X106.655 Y124.046 E.01144
G1 X106.655 Y100.956 E.72397
G1 X106.768 Y100.63 E.01081
G1 X107.114 Y100.762 F9000
G1 F1200
G1 X107.485 Y100.382 E.01666
G1 X107.739 Y100.282 E.00856
G1 X122.275 Y100.282 E.45575
G1 X122.525 Y100.392 E.00856
G1 X122.886 Y100.762 E.01622
G1 X122.968 Y100.989 E.00757
G1 X122.968 Y124.011 E.72181
G1 X122.868 Y124.265 E.00856
G1 X122.488 Y124.636 E.01666
G1 X122.261 Y124.718 E.00757
G1 X107.739 Y124.718 E.4553
G1 X107.485 Y124.618 E.00856
G1 X107.114 Y124.238 E.01666
G1 X107.032 Y124.011 E.00757
G1 X107.032 Y100.989 E.72181
G1 X107.094 Y100.819 E.00569
G1 X107.438 Y100.962 F9000
G1 F1200
G1 X107.712 Y100.688 E.01215
G1 X107.781 Y100.659 E.00235
G1 X122.219 Y100.659 E.45267
G1 X122.288 Y100.688 E.00235
G1 X122.562 Y100.962 E.01215
G1 X122.591 Y101.031 E.00235
G1 X122.591 Y123.969 E.71919
G1 X122.562 Y124.038 E.00235
G1 X122.288 Y124.312 E.01215
G1 X122.219 Y124.341 E.00235
G1 X107.781 Y124.341 E.45267
G1 X107.712 Y124.312 E.00235
G1 X107.438 Y124.038 E.01215
G1 X107.409 Y123.969 E.00235
G1 X107.415 Y101.017 E.71962
G1 X107.786 Y101.147 F9000
G1 F1200
G1 X107.897 Y101.036 E.0049
G1 X122.103 Y101.036 E.44543
G1 X122.214 Y101.147 E.0049
G1 X122.214 Y123.853 E.71194
G1 X122.103 Y123.964 E.0049
G1 X107.897 Y123.964 E.44543
G1 X107.786 Y123.853 E.0049
G1 X107.786 Y101.207 E.71006
G1 X108.562 Y101.812 F9000
;TYPE:Perimeter
;WIDTH:0.419999
G1 F1200
G1 X121.438 Y101.812 E.40371
G1 X121.438 Y123.188 E.67022
G1 X108.562 Y123.188 E.40371
G1 X108.562 Y101.872 E.66834
G1 X108.185 Y101.435 F9000
;TYPE:External perimeter
G1 F1200
G1 X121.815 Y101.435 E.42736
G1 X121.815 Y123.565 E.69387
G1 X108.185 Y123.565 E.42736
G1 X108.185 Y101.495 E.69199
G1 X108.562 Y101.568 F9000
G1 E-4.2 F3600
;WIPE_START
G1 F7200
G1 X111.785 Y101.479 E-1.71
;WIPE_END
G1 E-.09 F3600
G1 X115.301 Y106.903 F9000
G1 E6 F2400
;WIDTH:0.45345
G1 F1200
G1 X114.652 Y106.897 E.02216
G1 E-4.2 F3600
;WIPE_START
G1 F7200
G1 X115.301 Y106.903 E-.30832
;WIPE_END
G1 E-1.49168 F3600
G1 X114.634 Y117.991 F9000
G1 E6 F2400
;WIDTH:0.535326
G1 F1200
G1 X115.07 Y117.971 E.01789
G1 E-4.2 F3600
;WIPE_START
G1 F7200
G1 X114.634 Y117.991 E-.20756
;WIPE_END
G1 E-1.59244 F3600
G1 X112.366 Y118.408 F9000
G1 E6 F2400
;TYPE:Perimeter
;WIDTH:0.419999
G1 F1200
G1 X112.024 Y118.411 E.01072
G1 X111.797 Y118.366 E.00726
G1 X111.637 Y118.263 E.00596
G1 X111.506 Y118.083 E.00698
G1 X111.453 Y117.845 E.00763
G1 X111.453 Y107.002 E.33998
G1 X111.506 Y106.764 E.00765
G1 X111.638 Y106.584 E.007
G1 X111.863 Y106.459 E.00807
G1 X112.371 Y106.442 E.01594
G1 X113.401 Y106.473 E.03231
G1 X113.144 Y105.955 E.01813
G1 X113.092 Y105.724 E.00742
G1 X113.087 Y105.214 E.016
G1 X113.126 Y105.001 E.00678
G1 X113.313 Y104.525 E.01604
G1 X113.426 Y104.346 E.00662
G1 X113.775 Y103.972 E.01604
G1 X113.945 Y103.847 E.00661
G1 X114.407 Y103.627 E.01605
G1 X114.953 Y103.531 E.01739
G1 X115.457 Y103.583 E.01587
G1 X115.845 Y103.728 E.013
G1 X116.271 Y104.011 E.01604
G1 X116.422 Y104.159 E.00661
G1 X116.715 Y104.578 E.01604
G1 X116.802 Y104.772 E.00666
G1 X116.919 Y105.27 E.01603
G1 X116.888 Y105.845 E.01805
G1 X116.824 Y106.05 E.00674
G1 X116.62 Y106.47 E.01465
G1 X118.262 Y106.437 E.05148
G1 X118.556 Y106.519 E.0096
G1 X118.689 Y106.631 E.00542
G1 X118.789 Y106.798 E.00611
G1 X118.827 Y107.002 E.00652
G1 X118.827 Y117.845 E.33997
G1 X118.763 Y118.108 E.0085
G1 X118.606 Y118.294 E.00762
G1 X118.343 Y118.405 E.00895
G1 X117.137 Y118.406 E.03779
G1 X116.538 Y118.377 E.01882
G1 X116.817 Y118.818 E.01636
G1 X116.919 Y119.238 E.01356
G1 X116.93 Y119.606 E.01153
G1 X116.85 Y120.014 E.01302
G1 X116.641 Y120.48 E.01604
G1 X116.52 Y120.654 E.00662
G1 X116.154 Y121.011 E.01604
G1 X115.978 Y121.128 E.00661
G1 X115.507 Y121.326 E.01604
G1 X115.3 Y121.37 E.00662
G1 X114.789 Y121.382 E.01605
G1 X114.24 Y121.241 E.01777
G1 X113.662 Y120.855 E.02179
G1 X113.518 Y120.701 E.00662
G1 X113.245 Y120.268 E.01604
G1 X113.168 Y120.07 E.00665
G1 X113.073 Y119.567 E.01605
G1 X113.129 Y118.997 E.01796
G1 X113.308 Y118.615 E.01323
G1 X113.444 Y118.384 E.00841
G1 X112.426 Y118.407 E.03192
G1 X112.021 Y118.034 F9000
;TYPE:External perimeter
G1 F1200
G1 X111.892 Y117.984 E.00433
G1 X111.83 Y117.845 E.00476
G1 X111.831 Y107.002 E.33998
G1 X111.892 Y106.863 E.00478
G1 X112.022 Y106.814 E.00435
G1 X113.144 Y106.831 E.03519
G1 X114.019 Y106.903 E.02753
;WIDTH:0.447653
G1 X114.584 Y106.9 E.01899
;WIDTH:0.45345
G1 X114.652 Y106.897 E.00234
G1 X114.167 Y106.659 E.01846
;WIDTH:0.419999
G1 X113.75 Y106.324 E.01677
G1 X113.487 Y105.797 E.01846
G1 X113.464 Y105.21 E.01843
G1 X113.664 Y104.663 E.01826
G1 X114.051 Y104.229 E.01821
G1 X114.569 Y103.967 E.01822
G1 X115.042 Y103.905 E.01495
G1 X115.344 Y103.942 E.00953
G1 X115.637 Y104.042 E.0097
G1 X116.063 Y104.325 E.01604
G1 X116.406 Y104.794 E.01821
G1 X116.552 Y105.356 E.01822
G1 X116.492 Y105.871 E.01626
G1 X116.252 Y106.318 E.0159
G1 X115.713 Y106.736 E.02138
;WIDTH:0.439492
G1 X115.337 Y106.904 E.01358
G1 X116.112 Y106.914 E.02557
;WIDTH:0.419999
G1 X116.614 Y106.849 E.01585
G1 X118.262 Y106.814 E.05169
G1 X118.404 Y106.879 E.0049
G1 X118.45 Y107.002 E.00414
G1 X118.45 Y117.845 E.33997
G1 X118.377 Y117.995 E.00523
G1 X118.261 Y118.034 E.00382
G1 X117.139 Y118.029 E.03518
G1 X115.654 Y117.935 E.04665
;WIDTH:0.457525
G1 X115.362 Y117.953 E.01008
;WIDTH:0.49505
G1 X115.07 Y117.971 E.011
G1 X115.326 Y118.048 E.01005
;WIDTH:0.457525
G1 X115.582 Y118.125 E.00921
;WIDTH:0.419999
G1 X116.107 Y118.443 E.01922
G1 X116.447 Y118.918 E.01833
G1 X116.543 Y119.26 E.01115
G1 X116.556 Y119.554 E.00921
G1 X116.506 Y119.859 E.00971
G1 X116.297 Y120.326 E.01604
G1 X115.89 Y120.741 E.01821
